; GCode generated by pycam++ 0.1
;
; GCode generated by ccam 0.1
; wowowowow
#11  = 0 (X axis offset)
#12  = 0 (Y axis offset)
#13  = 0 (Z axis offset)
#21 = 1.0 (X Scale factor)
#22 = 1.0 (Y Scale factor)
#23 = 1.0 (Z Scale factor)
#31 = 3000.000000 (Feed definition for xy)
#32 = 100.000000 (Feed definition for plunge)
G40 (disable tool radius compensation)
G49 (disable tool length compensation)
G80 (cancel modal motion)
G54 (select coordinate system 1)
G90 (disable incremental moves)
G64 P0.01
G21 (metric)
G0 X14 Y0 Z22 A0 (beginpath)
;G1 X14 Y0 Z22 (beginrun)
G1 X14 Y0 Z4 F[#31] (point)
G1 X0 Y0 Z4 F[#31] (point)
;G1 X0 Y0 Z22 (endrun)
;G1 X0 Y1.11111 Z22 (beginrun)
G1 X0 Y1.11111 Z4 F[#31] (point)
G1 X14 Y1.11111 Z4 F[#31] (point)
;G1 X14 Y1.11111 Z22 (endrun)
;G1 X14 Y2.22222 Z22 (beginrun)
G1 X14 Y2.22222 Z4 F[#31] (point)
G1 X0 Y2.22222 Z4 F[#31] (point)
;G1 X0 Y2.22222 Z22 (endrun)
;G1 X0 Y3.33333 Z22 (beginrun)
G1 X0 Y3.33333 Z4 F[#31] (point)
G1 X14 Y3.33333 Z4 F[#31] (point)
;G1 X14 Y3.33333 Z22 (endrun)
;G1 X14 Y4.44444 Z22 (beginrun)
G1 X14 Y4.44444 Z4 F[#31] (point)
G1 X0 Y4.44444 Z4 F[#31] (point)
;G1 X0 Y4.44444 Z22 (endrun)
;G1 X0 Y5.55556 Z22 (beginrun)
G1 X0 Y5.55556 Z4 F[#31] (point)
G1 X14 Y5.55556 Z4 F[#31] (point)
;G1 X14 Y5.55556 Z22 (endrun)
;G1 X14 Y6.66667 Z22 (beginrun)
G1 X14 Y6.66667 Z4 F[#31] (point)
G1 X0 Y6.66667 Z4 F[#31] (point)
;G1 X0 Y6.66667 Z22 (endrun)
;G1 X0 Y7.77778 Z22 (beginrun)
G1 X0 Y7.77778 Z4 F[#31] (point)
G1 X14 Y7.77778 Z4 F[#31] (point)
;G1 X14 Y7.77778 Z22 (endrun)
;G1 X14 Y8.88889 Z22 (beginrun)
G1 X14 Y8.88889 Z4 F[#31] (point)
G1 X0 Y8.88889 Z4 F[#31] (point)
;G1 X0 Y8.88889 Z22 (endrun)
;G1 X0 Y10 Z22 (beginrun)
G1 X0 Y10 Z4 F[#31] (point)
G1 X14 Y10 Z4 F[#31] (point)
;G1 X14 Y10 Z22 (endrun)
;G1 X14 Y10 Z22 (endpath)
G0 X14 Y0 Z22 A0 (beginpath)
;G1 X14 Y0 Z22 (beginrun)
G1 X14 Y0 Z2 F[#31] (point)
G1 X3.67677 Y0 Z2 F[#31] (point)
G1 X3.53535 Y0 Z2.03302 F[#31] (point)
G1 X3.39394 Y0 Z2.12965 F[#31] (point)
G1 X3.25253 Y0 Z2.21818 F[#31] (point)
G1 X2.54545 Y0 Z2.64243 F[#31] (point)
G1 X2.40404 Y0 Z2.72646 F[#31] (point)
G1 X2.26263 Y0 Z2.79897 F[#31] (point)
G1 X2.12121 Y0 Z2.85832 F[#31] (point)
G1 X1.9798 Y0 Z2.90609 F[#31] (point)
G1 X1.83838 Y0 Z2.94337 F[#31] (point)
G1 X1.69697 Y0 Z2.9709 F[#31] (point)
G1 X1.55556 Y0 Z2.98919 F[#31] (point)
G1 X1.41414 Y0 Z2.99857 F[#31] (point)
G1 X1.27273 Y0 Z3 F[#31] (point)
G1 X0 Y0 Z3 F[#31] (point)
;G1 X0 Y0 Z22 (endrun)
;G1 X0 Y1.11111 Z22 (beginrun)
G1 X0 Y1.11111 Z2.99611 F[#31] (point)
G1 X1.9798 Y1.11111 Z2.99611 F[#31] (point)
G1 X2.12121 Y1.11111 Z2.99146 F[#31] (point)
G1 X2.26263 Y1.11111 Z2.97418 F[#31] (point)
G1 X2.40404 Y1.11111 Z2.9437 F[#31] (point)
G1 X2.54545 Y1.11111 Z2.8992 F[#31] (point)
G1 X2.68687 Y1.11111 Z2.83939 F[#31] (point)
G1 X2.82828 Y1.11111 Z2.76222 F[#31] (point)
G1 X2.9697 Y1.11111 Z2.67166 F[#31] (point)
G1 X3.11111 Y1.11111 Z2.57928 F[#31] (point)
G1 X3.25253 Y1.11111 Z2.48536 F[#31] (point)
G1 X3.39394 Y1.11111 Z2.38987 F[#31] (point)
G1 X3.53535 Y1.11111 Z2.29278 F[#31] (point)
G1 X3.67677 Y1.11111 Z2.19406 F[#31] (point)
G1 X3.81818 Y1.11111 Z2.09368 F[#31] (point)
G1 X3.9596 Y1.11111 Z2 F[#31] (point)
G1 X14 Y1.11111 Z2 F[#31] (point)
;G1 X14 Y1.11111 Z22 (endrun)
;G1 X14 Y2.22222 Z22 (beginrun)
G1 X14 Y2.22222 Z2 F[#31] (point)
G1 X3.53535 Y2.22222 Z2 F[#31] (point)
G1 X3.39394 Y2.22222 Z2.00653 F[#31] (point)
G1 X3.25253 Y2.22222 Z2.06344 F[#31] (point)
G1 X3.11111 Y2.22222 Z2.11814 F[#31] (point)
G1 X2.9697 Y2.22222 Z2.17051 F[#31] (point)
G1 X2.82828 Y2.22222 Z2.22038 F[#31] (point)
G1 X2.68687 Y2.22222 Z2.2676 F[#31] (point)
G1 X2.54545 Y2.22222 Z2.31195 F[#31] (point)
G1 X2.40404 Y2.22222 Z2.3532 F[#31] (point)
G1 X2.26263 Y2.22222 Z2.39105 F[#31] (point)
G1 X2.12121 Y2.22222 Z2.41844 F[#31] (point)
G1 X1.9798 Y2.22222 Z2.43168 F[#31] (point)
G1 X1.83838 Y2.22222 Z2.43534 F[#31] (point)
G1 X0 Y2.22222 Z2.43534 F[#31] (point)
;G1 X0 Y2.22222 Z22 (endrun)
;G1 X0 Y3.33333 Z22 (beginrun)
G1 X0 Y3.33333 Z2 F[#31] (point)
G1 X14 Y3.33333 Z2 F[#31] (point)
;G1 X14 Y3.33333 Z22 (endrun)
;G1 X14 Y4.44444 Z22 (beginrun)
G1 X14 Y4.44444 Z2 F[#31] (point)
G1 X0 Y4.44444 Z2 F[#31] (point)
;G1 X0 Y4.44444 Z22 (endrun)
;G1 X0 Y5.55556 Z22 (beginrun)
G1 X0 Y5.55556 Z2 F[#31] (point)
G1 X14 Y5.55556 Z2 F[#31] (point)
;G1 X14 Y5.55556 Z22 (endrun)
;G1 X14 Y6.66667 Z22 (beginrun)
G1 X14 Y6.66667 Z2 F[#31] (point)
G1 X0 Y6.66667 Z2 F[#31] (point)
;G1 X0 Y6.66667 Z22 (endrun)
;G1 X0 Y7.77778 Z22 (beginrun)
G1 X0 Y7.77778 Z2 F[#31] (point)
G1 X14 Y7.77778 Z2 F[#31] (point)
;G1 X14 Y7.77778 Z22 (endrun)
;G1 X14 Y8.88889 Z22 (beginrun)
G1 X14 Y8.88889 Z2 F[#31] (point)
G1 X0 Y8.88889 Z2 F[#31] (point)
;G1 X0 Y8.88889 Z22 (endrun)
;G1 X0 Y10 Z22 (beginrun)
G1 X0 Y10 Z2 F[#31] (point)
G1 X14 Y10 Z2 F[#31] (point)
;G1 X14 Y10 Z22 (endrun)
;G1 X14 Y10 Z22 (endpath)
G0 X14 Y0 Z22 A0 (beginpath)
;G1 X14 Y0 Z22 (beginrun)
G1 X14 Y0 Z0 F[#31] (point)
G1 X5.93939 Y0 Z0 F[#31] (point)
G1 X5.79798 Y0 Z0.18028 F[#31] (point)
G1 X5.65657 Y0 Z0.384254 F[#31] (point)
G1 X5.51515 Y0 Z0.536391 F[#31] (point)
G1 X5.37374 Y0 Z0.655866 F[#31] (point)
G1 X3.67677 Y0 Z1.9286 F[#31] (point)
G1 X3.53535 Y0 Z2.03302 F[#31] (point)
G1 X3.39394 Y0 Z2.12965 F[#31] (point)
G1 X3.25253 Y0 Z2.21818 F[#31] (point)
G1 X2.54545 Y0 Z2.64243 F[#31] (point)
G1 X2.40404 Y0 Z2.72646 F[#31] (point)
G1 X2.26263 Y0 Z2.79897 F[#31] (point)
G1 X2.12121 Y0 Z2.85832 F[#31] (point)
G1 X1.9798 Y0 Z2.90609 F[#31] (point)
G1 X1.83838 Y0 Z2.94337 F[#31] (point)
G1 X1.69697 Y0 Z2.9709 F[#31] (point)
G1 X1.55556 Y0 Z2.98919 F[#31] (point)
G1 X1.41414 Y0 Z2.99857 F[#31] (point)
G1 X1.27273 Y0 Z3 F[#31] (point)
G1 X0 Y0 Z3 F[#31] (point)
;G1 X0 Y0 Z22 (endrun)
;G1 X0 Y1.11111 Z22 (beginrun)
G1 X0 Y1.11111 Z2.99611 F[#31] (point)
G1 X1.9798 Y1.11111 Z2.99611 F[#31] (point)
G1 X2.12121 Y1.11111 Z2.99146 F[#31] (point)
G1 X2.26263 Y1.11111 Z2.97418 F[#31] (point)
G1 X2.40404 Y1.11111 Z2.9437 F[#31] (point)
G1 X2.54545 Y1.11111 Z2.8992 F[#31] (point)
G1 X2.68687 Y1.11111 Z2.83939 F[#31] (point)
G1 X2.82828 Y1.11111 Z2.76222 F[#31] (point)
G1 X2.9697 Y1.11111 Z2.67166 F[#31] (point)
G1 X3.11111 Y1.11111 Z2.57928 F[#31] (point)
G1 X3.25253 Y1.11111 Z2.48536 F[#31] (point)
G1 X3.39394 Y1.11111 Z2.38987 F[#31] (point)
G1 X3.53535 Y1.11111 Z2.29278 F[#31] (point)
G1 X3.67677 Y1.11111 Z2.19406 F[#31] (point)
G1 X3.81818 Y1.11111 Z2.09368 F[#31] (point)
G1 X3.9596 Y1.11111 Z1.99158 F[#31] (point)
G1 X4.10101 Y1.11111 Z1.88773 F[#31] (point)
G1 X4.24242 Y1.11111 Z1.78213 F[#31] (point)
G1 X5.65657 Y1.11111 Z0.721525 F[#31] (point)
G1 X5.79798 Y1.11111 Z0.613524 F[#31] (point)
G1 X5.93939 Y1.11111 Z0.482976 F[#31] (point)
G1 X6.08081 Y1.11111 Z0.314376 F[#31] (point)
G1 X6.22222 Y1.11111 Z0.0794685 F[#31] (point)
G1 X6.36364 Y1.11111 Z0 F[#31] (point)
G1 X14 Y1.11111 Z0 F[#31] (point)
;G1 X14 Y1.11111 Z22 (endrun)
;G1 X14 Y2.22222 Z22 (beginrun)
G1 X14 Y2.22222 Z0 F[#31] (point)
G1 X6.50505 Y2.22222 Z0 F[#31] (point)
G1 X6.36364 Y2.22222 Z0.194336 F[#31] (point)
G1 X6.22222 Y2.22222 Z0.400905 F[#31] (point)
G1 X6.08081 Y2.22222 Z0.553826 F[#31] (point)
G1 X5.93939 Y2.22222 Z0.672782 F[#31] (point)
G1 X5.79798 Y2.22222 Z0.766979 F[#31] (point)
G1 X5.65657 Y2.22222 Z0.852467 F[#31] (point)
G1 X5.51515 Y2.22222 Z0.936463 F[#31] (point)
G1 X5.37374 Y2.22222 Z1.01897 F[#31] (point)
G1 X5.23232 Y2.22222 Z1.09997 F[#31] (point)
G1 X5.09091 Y2.22222 Z1.17947 F[#31] (point)
G1 X4.94949 Y2.22222 Z1.25745 F[#31] (point)
G1 X4.80808 Y2.22222 Z1.33389 F[#31] (point)
G1 X4.66667 Y2.22222 Z1.40877 F[#31] (point)
G1 X4.52525 Y2.22222 Z1.48206 F[#31] (point)
G1 X4.38384 Y2.22222 Z1.55374 F[#31] (point)
G1 X4.24242 Y2.22222 Z1.62378 F[#31] (point)
G1 X4.10101 Y2.22222 Z1.69212 F[#31] (point)
G1 X3.9596 Y2.22222 Z1.75872 F[#31] (point)
G1 X3.81818 Y2.22222 Z1.82353 F[#31] (point)
G1 X3.67677 Y2.22222 Z1.88648 F[#31] (point)
G1 X3.53535 Y2.22222 Z1.94751 F[#31] (point)
G1 X3.39394 Y2.22222 Z2.00653 F[#31] (point)
G1 X3.25253 Y2.22222 Z2.06344 F[#31] (point)
G1 X3.11111 Y2.22222 Z2.11814 F[#31] (point)
G1 X2.9697 Y2.22222 Z2.17051 F[#31] (point)
G1 X2.82828 Y2.22222 Z2.22038 F[#31] (point)
G1 X2.68687 Y2.22222 Z2.2676 F[#31] (point)
G1 X2.54545 Y2.22222 Z2.31195 F[#31] (point)
G1 X2.40404 Y2.22222 Z2.3532 F[#31] (point)
G1 X2.26263 Y2.22222 Z2.39105 F[#31] (point)
G1 X2.12121 Y2.22222 Z2.41844 F[#31] (point)
G1 X1.9798 Y2.22222 Z2.43168 F[#31] (point)
G1 X1.83838 Y2.22222 Z2.43534 F[#31] (point)
G1 X0 Y2.22222 Z2.43534 F[#31] (point)
;G1 X0 Y2.22222 Z22 (endrun)
;G1 X0 Y3.33333 Z22 (beginrun)
G1 X0 Y3.33333 Z1.32423 F[#31] (point)
G1 X0.141414 Y3.33333 Z1.32423 F[#31] (point)
G1 X0.282828 Y3.33333 Z1.32211 F[#31] (point)
G1 X0.424242 Y3.33333 Z1.31106 F[#31] (point)
G1 X0.565657 Y3.33333 Z1.28901 F[#31] (point)
G1 X0.707071 Y3.33333 Z1.25795 F[#31] (point)
G1 X4.66667 Y3.33333 Z0.378043 F[#31] (point)
G1 X4.80808 Y3.33333 Z0.346535 F[#31] (point)
G1 X4.94949 Y3.33333 Z0.313719 F[#31] (point)
G1 X5.09091 Y3.33333 Z0.279038 F[#31] (point)
G1 X5.23232 Y3.33333 Z0.2422 F[#31] (point)
G1 X5.37374 Y3.33333 Z0.188836 F[#31] (point)
G1 X5.51515 Y3.33333 Z0.103149 F[#31] (point)
G1 X5.65657 Y3.33333 Z0 F[#31] (point)
G1 X14 Y3.33333 Z0 F[#31] (point)
;G1 X14 Y3.33333 Z22 (endrun)
;G1 X14 Y4.44444 Z22 (beginrun)
G1 X14 Y4.44444 Z0 F[#31] (point)
G1 X0 Y4.44444 Z0 F[#31] (point)
;G1 X0 Y4.44444 Z22 (endrun)
;G1 X0 Y5.55556 Z22 (beginrun)
G1 X0 Y5.55556 Z0 F[#31] (point)
G1 X14 Y5.55556 Z0 F[#31] (point)
;G1 X14 Y5.55556 Z22 (endrun)
;G1 X14 Y6.66667 Z22 (beginrun)
G1 X14 Y6.66667 Z0 F[#31] (point)
G1 X0 Y6.66667 Z0 F[#31] (point)
;G1 X0 Y6.66667 Z22 (endrun)
;G1 X0 Y7.77778 Z22 (beginrun)
G1 X0 Y7.77778 Z0 F[#31] (point)
G1 X14 Y7.77778 Z0 F[#31] (point)
;G1 X14 Y7.77778 Z22 (endrun)
;G1 X14 Y8.88889 Z22 (beginrun)
G1 X14 Y8.88889 Z0 F[#31] (point)
G1 X0 Y8.88889 Z0 F[#31] (point)
;G1 X0 Y8.88889 Z22 (endrun)
;G1 X0 Y10 Z22 (beginrun)
G1 X0 Y10 Z0 F[#31] (point)
G1 X14 Y10 Z0 F[#31] (point)
;G1 X14 Y10 Z22 (endrun)
;G1 X14 Y10 Z22 (endpath)
G0 X14 Y0 Z22 A20 (beginpath)
;G1 X14 Y0 Z22 (beginrun)
G1 X14 Y0 Z4 F[#31] (point)
G1 X0 Y0 Z4 F[#31] (point)
;G1 X0 Y0 Z22 (endrun)
;G1 X0 Y1.11111 Z22 (beginrun)
G1 X0 Y1.11111 Z4 F[#31] (point)
G1 X14 Y1.11111 Z4 F[#31] (point)
;G1 X14 Y1.11111 Z22 (endrun)
;G1 X14 Y2.22222 Z22 (beginrun)
G1 X14 Y2.22222 Z4 F[#31] (point)
G1 X0 Y2.22222 Z4 F[#31] (point)
;G1 X0 Y2.22222 Z22 (endrun)
;G1 X0 Y3.33333 Z22 (beginrun)
G1 X0 Y3.33333 Z4 F[#31] (point)
G1 X14 Y3.33333 Z4 F[#31] (point)
;G1 X14 Y3.33333 Z22 (endrun)
;G1 X14 Y4.44444 Z22 (beginrun)
G1 X14 Y4.44444 Z4 F[#31] (point)
G1 X0 Y4.44444 Z4 F[#31] (point)
;G1 X0 Y4.44444 Z22 (endrun)
;G1 X0 Y5.55556 Z22 (beginrun)
G1 X0 Y5.55556 Z4 F[#31] (point)
G1 X14 Y5.55556 Z4 F[#31] (point)
;G1 X14 Y5.55556 Z22 (endrun)
;G1 X14 Y6.66667 Z22 (beginrun)
G1 X14 Y6.66667 Z4 F[#31] (point)
G1 X0 Y6.66667 Z4 F[#31] (point)
;G1 X0 Y6.66667 Z22 (endrun)
;G1 X0 Y7.77778 Z22 (beginrun)
G1 X0 Y7.77778 Z4 F[#31] (point)
G1 X14 Y7.77778 Z4 F[#31] (point)
;G1 X14 Y7.77778 Z22 (endrun)
;G1 X14 Y8.88889 Z22 (beginrun)
G1 X14 Y8.88889 Z4 F[#31] (point)
G1 X0 Y8.88889 Z4 F[#31] (point)
;G1 X0 Y8.88889 Z22 (endrun)
;G1 X0 Y10 Z22 (beginrun)
G1 X0 Y10 Z4 F[#31] (point)
G1 X14 Y10 Z4 F[#31] (point)
;G1 X14 Y10 Z22 (endrun)
;G1 X14 Y10 Z22 (endpath)
G0 X14 Y0 Z22 A20 (beginpath)
;G1 X14 Y0 Z22 (beginrun)
G1 X14 Y0 Z2 F[#31] (point)
G1 X4.38384 Y0 Z2 F[#31] (point)
G1 X4.24242 Y0 Z2.02624 F[#31] (point)
G1 X4.10101 Y0 Z2.13817 F[#31] (point)
G1 X3.9596 Y0 Z2.24427 F[#31] (point)
G1 X3.81818 Y0 Z2.34511 F[#31] (point)
G1 X3.67677 Y0 Z2.44115 F[#31] (point)
G1 X3.53535 Y0 Z2.53275 F[#31] (point)
G1 X3.39394 Y0 Z2.6202 F[#31] (point)
G1 X3.25253 Y0 Z2.70375 F[#31] (point)
G1 X3.11111 Y0 Z2.78358 F[#31] (point)
G1 X2.9697 Y0 Z2.85985 F[#31] (point)
G1 X2.82828 Y0 Z2.93269 F[#31] (point)
G1 X2.68687 Y0 Z3.0022 F[#31] (point)
G1 X2.54545 Y0 Z3.06194 F[#31] (point)
G1 X2.40404 Y0 Z3.10639 F[#31] (point)
G1 X2.26263 Y0 Z3.13684 F[#31] (point)
G1 X2.12121 Y0 Z3.1541 F[#31] (point)
G1 X1.9798 Y0 Z3.15875 F[#31] (point)
G1 X0 Y0 Z3.15875 F[#31] (point)
;G1 X0 Y0 Z22 (endrun)
;G1 X0 Y1.11111 Z22 (beginrun)
G1 X0 Y1.11111 Z2.76682 F[#31] (point)
G1 X1.27273 Y1.11111 Z2.76682 F[#31] (point)
G1 X1.41414 Y1.11111 Z2.76666 F[#31] (point)
G1 X1.55556 Y1.11111 Z2.76186 F[#31] (point)
G1 X1.69697 Y1.11111 Z2.7499 F[#31] (point)
G1 X1.83838 Y1.11111 Z2.73026 F[#31] (point)
G1 X2.82828 Y1.11111 Z2.57265 F[#31] (point)
G1 X2.9697 Y1.11111 Z2.54824 F[#31] (point)
G1 X3.11111 Y1.11111 Z2.51992 F[#31] (point)
G1 X3.25253 Y1.11111 Z2.48786 F[#31] (point)
G1 X3.39394 Y1.11111 Z2.45225 F[#31] (point)
G1 X3.53535 Y1.11111 Z2.41319 F[#31] (point)
G1 X3.67677 Y1.11111 Z2.37079 F[#31] (point)
G1 X3.81818 Y1.11111 Z2.32514 F[#31] (point)
G1 X3.9596 Y1.11111 Z2.27629 F[#31] (point)
G1 X4.10101 Y1.11111 Z2.22428 F[#31] (point)
G1 X4.24242 Y1.11111 Z2.16914 F[#31] (point)
G1 X4.38384 Y1.11111 Z2.11086 F[#31] (point)
G1 X4.52525 Y1.11111 Z2.04943 F[#31] (point)
G1 X4.66667 Y1.11111 Z2 F[#31] (point)
G1 X14 Y1.11111 Z2 F[#31] (point)
;G1 X14 Y1.11111 Z22 (endrun)
;G1 X14 Y2.22222 Z22 (beginrun)
G1 X14 Y2.22222 Z2 F[#31] (point)
G1 X1.9798 Y2.22222 Z2 F[#31] (point)
G1 X1.83838 Y2.22222 Z2.0051 F[#31] (point)
G1 X0.565657 Y2.22222 Z2.20774 F[#31] (point)
G1 X0.424242 Y2.22222 Z2.22856 F[#31] (point)
G1 X0.282828 Y2.22222 Z2.24198 F[#31] (point)
G1 X0.141414 Y2.22222 Z2.24814 F[#31] (point)
G1 X0 Y2.22222 Z2.2487 F[#31] (point)
;G1 X0 Y2.22222 Z22 (endrun)
;G1 X0 Y3.33333 Z22 (beginrun)
G1 X0 Y3.33333 Z2 F[#31] (point)
G1 X14 Y3.33333 Z2 F[#31] (point)
;G1 X14 Y3.33333 Z22 (endrun)
;G1 X14 Y4.44444 Z22 (beginrun)
G1 X14 Y4.44444 Z2 F[#31] (point)
G1 X0 Y4.44444 Z2 F[#31] (point)
;G1 X0 Y4.44444 Z22 (endrun)
;G1 X0 Y5.55556 Z22 (beginrun)
G1 X0 Y5.55556 Z2 F[#31] (point)
G1 X14 Y5.55556 Z2 F[#31] (point)
;G1 X14 Y5.55556 Z22 (endrun)
;G1 X14 Y6.66667 Z22 (beginrun)
G1 X14 Y6.66667 Z2 F[#31] (point)
G1 X0 Y6.66667 Z2 F[#31] (point)
;G1 X0 Y6.66667 Z22 (endrun)
;G1 X0 Y7.77778 Z22 (beginrun)
G1 X0 Y7.77778 Z2 F[#31] (point)
G1 X14 Y7.77778 Z2 F[#31] (point)
;G1 X14 Y7.77778 Z22 (endrun)
;G1 X14 Y8.88889 Z22 (beginrun)
G1 X14 Y8.88889 Z2 F[#31] (point)
G1 X0 Y8.88889 Z2 F[#31] (point)
;G1 X0 Y8.88889 Z22 (endrun)
;G1 X0 Y10 Z22 (beginrun)
G1 X0 Y10 Z2 F[#31] (point)
G1 X14 Y10 Z2 F[#31] (point)
;G1 X14 Y10 Z22 (endrun)
;G1 X14 Y10 Z22 (endpath)
G0 X14 Y0 Z22 A20 (beginpath)
;G1 X14 Y0 Z22 (beginrun)
G1 X14 Y0 Z0 F[#31] (point)
G1 X6.22222 Y0 Z0 F[#31] (point)
G1 X6.08081 Y0 Z0.100773 F[#31] (point)
G1 X5.93939 Y0 Z0.43956 F[#31] (point)
G1 X5.79798 Y0 Z0.643282 F[#31] (point)
G1 X5.65657 Y0 Z0.790346 F[#31] (point)
G1 X5.51515 Y0 Z0.914653 F[#31] (point)
G1 X4.52525 Y0 Z1.78381 F[#31] (point)
G1 X4.38384 Y0 Z1.90771 F[#31] (point)
G1 X4.24242 Y0 Z2.02624 F[#31] (point)
G1 X4.10101 Y0 Z2.13817 F[#31] (point)
G1 X3.9596 Y0 Z2.24427 F[#31] (point)
G1 X3.81818 Y0 Z2.34511 F[#31] (point)
G1 X3.67677 Y0 Z2.44115 F[#31] (point)
G1 X3.53535 Y0 Z2.53275 F[#31] (point)
G1 X3.39394 Y0 Z2.6202 F[#31] (point)
G1 X3.25253 Y0 Z2.70375 F[#31] (point)
G1 X3.11111 Y0 Z2.78358 F[#31] (point)
G1 X2.9697 Y0 Z2.85985 F[#31] (point)
G1 X2.82828 Y0 Z2.93269 F[#31] (point)
G1 X2.68687 Y0 Z3.0022 F[#31] (point)
G1 X2.54545 Y0 Z3.06194 F[#31] (point)
G1 X2.40404 Y0 Z3.10639 F[#31] (point)
G1 X2.26263 Y0 Z3.13684 F[#31] (point)
G1 X2.12121 Y0 Z3.1541 F[#31] (point)
G1 X1.9798 Y0 Z3.15875 F[#31] (point)
G1 X0 Y0 Z3.15875 F[#31] (point)
;G1 X0 Y0 Z22 (endrun)
;G1 X0 Y1.11111 Z22 (beginrun)
G1 X0 Y1.11111 Z2.76682 F[#31] (point)
G1 X1.27273 Y1.11111 Z2.76682 F[#31] (point)
G1 X1.41414 Y1.11111 Z2.76666 F[#31] (point)
G1 X1.55556 Y1.11111 Z2.76186 F[#31] (point)
G1 X1.69697 Y1.11111 Z2.7499 F[#31] (point)
G1 X1.83838 Y1.11111 Z2.73026 F[#31] (point)
G1 X2.82828 Y1.11111 Z2.57265 F[#31] (point)
G1 X2.9697 Y1.11111 Z2.54824 F[#31] (point)
G1 X3.11111 Y1.11111 Z2.51992 F[#31] (point)
G1 X3.25253 Y1.11111 Z2.48786 F[#31] (point)
G1 X3.39394 Y1.11111 Z2.45225 F[#31] (point)
G1 X3.53535 Y1.11111 Z2.41319 F[#31] (point)
G1 X3.67677 Y1.11111 Z2.37079 F[#31] (point)
G1 X3.81818 Y1.11111 Z2.32514 F[#31] (point)
G1 X3.9596 Y1.11111 Z2.27629 F[#31] (point)
G1 X4.10101 Y1.11111 Z2.22428 F[#31] (point)
G1 X4.24242 Y1.11111 Z2.16914 F[#31] (point)
G1 X4.38384 Y1.11111 Z2.11086 F[#31] (point)
G1 X4.52525 Y1.11111 Z2.04943 F[#31] (point)
G1 X4.66667 Y1.11111 Z1.98483 F[#31] (point)
G1 X4.80808 Y1.11111 Z1.91702 F[#31] (point)
G1 X4.94949 Y1.11111 Z1.84591 F[#31] (point)
G1 X5.09091 Y1.11111 Z1.77142 F[#31] (point)
G1 X5.23232 Y1.11111 Z1.69345 F[#31] (point)
G1 X5.37374 Y1.11111 Z1.61185 F[#31] (point)
G1 X5.51515 Y1.11111 Z1.52644 F[#31] (point)
G1 X5.65657 Y1.11111 Z1.43701 F[#31] (point)
G1 X5.79798 Y1.11111 Z1.34331 F[#31] (point)
G1 X5.93939 Y1.11111 Z1.24288 F[#31] (point)
G1 X6.08081 Y1.11111 Z1.11804 F[#31] (point)
G1 X6.22222 Y1.11111 Z0.955273 F[#31] (point)
G1 X6.36364 Y1.11111 Z0.728301 F[#31] (point)
G1 X6.50505 Y1.11111 Z0.306949 F[#31] (point)
G1 X6.64646 Y1.11111 Z0 F[#31] (point)
G1 X14 Y1.11111 Z0 F[#31] (point)
;G1 X14 Y1.11111 Z22 (endrun)
;G1 X14 Y2.22222 Z22 (beginrun)
G1 X14 Y2.22222 Z0 F[#31] (point)
G1 X6.50505 Y2.22222 Z0 F[#31] (point)
G1 X6.36364 Y2.22222 Z0.47398 F[#31] (point)
G1 X6.22222 Y2.22222 Z0.782758 F[#31] (point)
G1 X6.08081 Y2.22222 Z0.975903 F[#31] (point)
G1 X5.93939 Y2.22222 Z1.11728 F[#31] (point)
G1 X5.79798 Y2.22222 Z1.2255 F[#31] (point)
G1 X5.65657 Y2.22222 Z1.30904 F[#31] (point)
G1 X5.51515 Y2.22222 Z1.37255 F[#31] (point)
G1 X5.37374 Y2.22222 Z1.41878 F[#31] (point)
G1 X5.23232 Y2.22222 Z1.45287 F[#31] (point)
G1 X5.09091 Y2.22222 Z1.48302 F[#31] (point)
G1 X4.94949 Y2.22222 Z1.50935 F[#31] (point)
G1 X4.80808 Y2.22222 Z1.53228 F[#31] (point)
G1 X0.565657 Y2.22222 Z2.20774 F[#31] (point)
G1 X0.424242 Y2.22222 Z2.22856 F[#31] (point)
G1 X0.282828 Y2.22222 Z2.24198 F[#31] (point)
G1 X0.141414 Y2.22222 Z2.24814 F[#31] (point)
G1 X0 Y2.22222 Z2.2487 F[#31] (point)
;G1 X0 Y2.22222 Z22 (endrun)
;G1 X0 Y3.33333 Z22 (beginrun)
G1 X0 Y3.33333 Z1.56441 F[#31] (point)
G1 X0.141414 Y3.33333 Z1.53842 F[#31] (point)
G1 X0.282828 Y3.33333 Z1.51175 F[#31] (point)
G1 X0.424242 Y3.33333 Z1.48438 F[#31] (point)
G1 X0.565657 Y3.33333 Z1.45626 F[#31] (point)
G1 X0.707071 Y3.33333 Z1.42736 F[#31] (point)
G1 X0.848485 Y3.33333 Z1.39764 F[#31] (point)
G1 X0.989899 Y3.33333 Z1.36703 F[#31] (point)
G1 X1.13131 Y3.33333 Z1.33549 F[#31] (point)
G1 X1.27273 Y3.33333 Z1.30296 F[#31] (point)
G1 X1.41414 Y3.33333 Z1.26936 F[#31] (point)
G1 X1.55556 Y3.33333 Z1.2346 F[#31] (point)
G1 X1.69697 Y3.33333 Z1.1986 F[#31] (point)
G1 X1.83838 Y3.33333 Z1.16123 F[#31] (point)
G1 X1.9798 Y3.33333 Z1.12237 F[#31] (point)
G1 X2.12121 Y3.33333 Z1.08186 F[#31] (point)
G1 X2.26263 Y3.33333 Z1.03949 F[#31] (point)
G1 X2.40404 Y3.33333 Z0.995039 F[#31] (point)
G1 X2.54545 Y3.33333 Z0.948195 F[#31] (point)
G1 X2.68687 Y3.33333 Z0.898573 F[#31] (point)
G1 X2.82828 Y3.33333 Z0.845654 F[#31] (point)
G1 X2.9697 Y3.33333 Z0.788725 F[#31] (point)
G1 X3.11111 Y3.33333 Z0.726752 F[#31] (point)
G1 X3.25253 Y3.33333 Z0.658126 F[#31] (point)
G1 X3.39394 Y3.33333 Z0.580096 F[#31] (point)
G1 X3.53535 Y3.33333 Z0.487108 F[#31] (point)
G1 X3.67677 Y3.33333 Z0.363628 F[#31] (point)
G1 X3.81818 Y3.33333 Z0 F[#31] (point)
G1 X14 Y3.33333 Z0 F[#31] (point)
;G1 X14 Y3.33333 Z22 (endrun)
;G1 X14 Y4.44444 Z22 (beginrun)
G1 X14 Y4.44444 Z0 F[#31] (point)
G1 X0 Y4.44444 Z0 F[#31] (point)
;G1 X0 Y4.44444 Z22 (endrun)
;G1 X0 Y5.55556 Z22 (beginrun)
G1 X0 Y5.55556 Z0 F[#31] (point)
G1 X14 Y5.55556 Z0 F[#31] (point)
;G1 X14 Y5.55556 Z22 (endrun)
;G1 X14 Y6.66667 Z22 (beginrun)
G1 X14 Y6.66667 Z0 F[#31] (point)
G1 X0 Y6.66667 Z0 F[#31] (point)
;G1 X0 Y6.66667 Z22 (endrun)
;G1 X0 Y7.77778 Z22 (beginrun)
G1 X0 Y7.77778 Z0 F[#31] (point)
G1 X14 Y7.77778 Z0 F[#31] (point)
;G1 X14 Y7.77778 Z22 (endrun)
;G1 X14 Y8.88889 Z22 (beginrun)
G1 X14 Y8.88889 Z0 F[#31] (point)
G1 X0 Y8.88889 Z0 F[#31] (point)
;G1 X0 Y8.88889 Z22 (endrun)
;G1 X0 Y10 Z22 (beginrun)
G1 X0 Y10 Z0 F[#31] (point)
G1 X14 Y10 Z0 F[#31] (point)
;G1 X14 Y10 Z22 (endrun)
;G1 X14 Y10 Z22 (endpath)
G0 X14 Y0 Z22 A40 (beginpath)
;G1 X14 Y0 Z22 (beginrun)
G1 X14 Y0 Z4 F[#31] (point)
G1 X0 Y0 Z4 F[#31] (point)
;G1 X0 Y0 Z22 (endrun)
;G1 X0 Y1.11111 Z22 (beginrun)
G1 X0 Y1.11111 Z4 F[#31] (point)
G1 X14 Y1.11111 Z4 F[#31] (point)
;G1 X14 Y1.11111 Z22 (endrun)
;G1 X14 Y2.22222 Z22 (beginrun)
G1 X14 Y2.22222 Z4 F[#31] (point)
G1 X0 Y2.22222 Z4 F[#31] (point)
;G1 X0 Y2.22222 Z22 (endrun)
;G1 X0 Y3.33333 Z22 (beginrun)
G1 X0 Y3.33333 Z4 F[#31] (point)
G1 X14 Y3.33333 Z4 F[#31] (point)
;G1 X14 Y3.33333 Z22 (endrun)
;G1 X14 Y4.44444 Z22 (beginrun)
G1 X14 Y4.44444 Z4 F[#31] (point)
G1 X0 Y4.44444 Z4 F[#31] (point)
;G1 X0 Y4.44444 Z22 (endrun)
;G1 X0 Y5.55556 Z22 (beginrun)
G1 X0 Y5.55556 Z4 F[#31] (point)
G1 X14 Y5.55556 Z4 F[#31] (point)
;G1 X14 Y5.55556 Z22 (endrun)
;G1 X14 Y6.66667 Z22 (beginrun)
G1 X14 Y6.66667 Z4 F[#31] (point)
G1 X0 Y6.66667 Z4 F[#31] (point)
;G1 X0 Y6.66667 Z22 (endrun)
;G1 X0 Y7.77778 Z22 (beginrun)
G1 X0 Y7.77778 Z4 F[#31] (point)
G1 X14 Y7.77778 Z4 F[#31] (point)
;G1 X14 Y7.77778 Z22 (endrun)
;G1 X14 Y8.88889 Z22 (beginrun)
G1 X14 Y8.88889 Z4 F[#31] (point)
G1 X0 Y8.88889 Z4 F[#31] (point)
;G1 X0 Y8.88889 Z22 (endrun)
;G1 X0 Y10 Z22 (beginrun)
G1 X0 Y10 Z4 F[#31] (point)
G1 X14 Y10 Z4 F[#31] (point)
;G1 X14 Y10 Z22 (endrun)
;G1 X14 Y10 Z22 (endpath)
G0 X14 Y0 Z22 A40 (beginpath)
;G1 X14 Y0 Z22 (beginrun)
G1 X14 Y0 Z2 F[#31] (point)
G1 X5.09091 Y0 Z2 F[#31] (point)
G1 X4.94949 Y0 Z2.0612 F[#31] (point)
G1 X4.80808 Y0 Z2.12774 F[#31] (point)
G1 X4.66667 Y0 Z2.18894 F[#31] (point)
G1 X4.52525 Y0 Z2.24515 F[#31] (point)
G1 X4.38384 Y0 Z2.29662 F[#31] (point)
G1 X4.24242 Y0 Z2.34356 F[#31] (point)
G1 X4.10101 Y0 Z2.38612 F[#31] (point)
G1 X3.9596 Y0 Z2.42442 F[#31] (point)
G1 X3.81818 Y0 Z2.45853 F[#31] (point)
G1 X3.67677 Y0 Z2.48849 F[#31] (point)
G1 X3.53535 Y0 Z2.51432 F[#31] (point)
G1 X3.39394 Y0 Z2.53599 F[#31] (point)
G1 X1.41414 Y0 Z2.80705 F[#31] (point)
G1 X1.27273 Y0 Z2.82537 F[#31] (point)
G1 X1.13131 Y0 Z2.83793 F[#31] (point)
G1 X0.989899 Y0 Z2.84434 F[#31] (point)
G1 X0.848485 Y0 Z2.84529 F[#31] (point)
G1 X0 Y0 Z2.84529 F[#31] (point)
;G1 X0 Y0 Z22 (endrun)
;G1 X0 Y1.11111 Z22 (beginrun)
G1 X0 Y1.11111 Z2.73685 F[#31] (point)
G1 X0.141414 Y1.11111 Z2.72199 F[#31] (point)
G1 X0.282828 Y1.11111 Z2.70276 F[#31] (point)
G1 X4.94949 Y1.11111 Z2.06384 F[#31] (point)
G1 X5.09091 Y1.11111 Z2.04381 F[#31] (point)
G1 X5.23232 Y1.11111 Z2.02002 F[#31] (point)
G1 X5.37374 Y1.11111 Z2 F[#31] (point)
G1 X14 Y1.11111 Z2 F[#31] (point)
;G1 X14 Y1.11111 Z22 (endrun)
;G1 X14 Y2.22222 Z22 (beginrun)
G1 X14 Y2.22222 Z2 F[#31] (point)
G1 X2.54545 Y2.22222 Z2 F[#31] (point)
G1 X2.40404 Y2.22222 Z2.00093 F[#31] (point)
G1 X2.26263 Y2.22222 Z2.03008 F[#31] (point)
G1 X2.12121 Y2.22222 Z2.05881 F[#31] (point)
G1 X1.9798 Y2.22222 Z2.08714 F[#31] (point)
G1 X1.83838 Y2.22222 Z2.11508 F[#31] (point)
G1 X1.69697 Y2.22222 Z2.14264 F[#31] (point)
G1 X1.55556 Y2.22222 Z2.16984 F[#31] (point)
G1 X1.41414 Y2.22222 Z2.19669 F[#31] (point)
G1 X1.27273 Y2.22222 Z2.22319 F[#31] (point)
G1 X1.13131 Y2.22222 Z2.24935 F[#31] (point)
G1 X0.989899 Y2.22222 Z2.27518 F[#31] (point)
G1 X0.848485 Y2.22222 Z2.30069 F[#31] (point)
G1 X0.707071 Y2.22222 Z2.32588 F[#31] (point)
G1 X0.565657 Y2.22222 Z2.35077 F[#31] (point)
G1 X0.424242 Y2.22222 Z2.37536 F[#31] (point)
G1 X0.282828 Y2.22222 Z2.39965 F[#31] (point)
G1 X0.141414 Y2.22222 Z2.42366 F[#31] (point)
G1 X0 Y2.22222 Z2.44738 F[#31] (point)
;G1 X0 Y2.22222 Z22 (endrun)
;G1 X0 Y3.33333 Z22 (beginrun)
G1 X0 Y3.33333 Z2 F[#31] (point)
G1 X14 Y3.33333 Z2 F[#31] (point)
;G1 X14 Y3.33333 Z22 (endrun)
;G1 X14 Y4.44444 Z22 (beginrun)
G1 X14 Y4.44444 Z2 F[#31] (point)
G1 X0 Y4.44444 Z2 F[#31] (point)
;G1 X0 Y4.44444 Z22 (endrun)
;G1 X0 Y5.55556 Z22 (beginrun)
G1 X0 Y5.55556 Z2 F[#31] (point)
G1 X14 Y5.55556 Z2 F[#31] (point)
;G1 X14 Y5.55556 Z22 (endrun)
;G1 X14 Y6.66667 Z22 (beginrun)
G1 X14 Y6.66667 Z2 F[#31] (point)
G1 X0 Y6.66667 Z2 F[#31] (point)
;G1 X0 Y6.66667 Z22 (endrun)
;G1 X0 Y7.77778 Z22 (beginrun)
G1 X0 Y7.77778 Z2 F[#31] (point)
G1 X14 Y7.77778 Z2 F[#31] (point)
;G1 X14 Y7.77778 Z22 (endrun)
;G1 X14 Y8.88889 Z22 (beginrun)
G1 X14 Y8.88889 Z2 F[#31] (point)
G1 X0 Y8.88889 Z2 F[#31] (point)
;G1 X0 Y8.88889 Z22 (endrun)
;G1 X0 Y10 Z22 (beginrun)
G1 X0 Y10 Z2 F[#31] (point)
G1 X14 Y10 Z2 F[#31] (point)
;G1 X14 Y10 Z22 (endrun)
;G1 X14 Y10 Z22 (endpath)
G0 X14 Y0 Z22 A40 (beginpath)
;G1 X14 Y0 Z22 (beginrun)
G1 X14 Y0 Z0 F[#31] (point)
G1 X6.36364 Y0 Z0 F[#31] (point)
G1 X6.22222 Y0 Z0.949373 F[#31] (point)
G1 X6.08081 Y0 Z1.21322 F[#31] (point)
G1 X5.93939 Y0 Z1.38436 F[#31] (point)
G1 X5.79798 Y0 Z1.51388 F[#31] (point)
G1 X5.65657 Y0 Z1.62807 F[#31] (point)
G1 X5.51515 Y0 Z1.73103 F[#31] (point)
G1 X5.37374 Y0 Z1.82466 F[#31] (point)
G1 X5.23232 Y0 Z1.9103 F[#31] (point)
G1 X5.09091 Y0 Z1.98891 F[#31] (point)
G1 X4.94949 Y0 Z2.0612 F[#31] (point)
G1 X4.80808 Y0 Z2.12774 F[#31] (point)
G1 X4.66667 Y0 Z2.18894 F[#31] (point)
G1 X4.52525 Y0 Z2.24515 F[#31] (point)
G1 X4.38384 Y0 Z2.29662 F[#31] (point)
G1 X4.24242 Y0 Z2.34356 F[#31] (point)
G1 X4.10101 Y0 Z2.38612 F[#31] (point)
G1 X3.9596 Y0 Z2.42442 F[#31] (point)
G1 X3.81818 Y0 Z2.45853 F[#31] (point)
G1 X3.67677 Y0 Z2.48849 F[#31] (point)
G1 X3.53535 Y0 Z2.51432 F[#31] (point)
G1 X3.39394 Y0 Z2.53599 F[#31] (point)
G1 X1.41414 Y0 Z2.80705 F[#31] (point)
G1 X1.27273 Y0 Z2.82537 F[#31] (point)
G1 X1.13131 Y0 Z2.83793 F[#31] (point)
G1 X0.989899 Y0 Z2.84434 F[#31] (point)
G1 X0.848485 Y0 Z2.84529 F[#31] (point)
G1 X0 Y0 Z2.84529 F[#31] (point)
;G1 X0 Y0 Z22 (endrun)
;G1 X0 Y1.11111 Z22 (beginrun)
G1 X0 Y1.11111 Z2.73685 F[#31] (point)
G1 X0.141414 Y1.11111 Z2.72199 F[#31] (point)
G1 X0.282828 Y1.11111 Z2.70276 F[#31] (point)
G1 X4.94949 Y1.11111 Z2.06384 F[#31] (point)
G1 X5.09091 Y1.11111 Z2.04381 F[#31] (point)
G1 X5.23232 Y1.11111 Z2.02002 F[#31] (point)
G1 X5.37374 Y1.11111 Z1.99097 F[#31] (point)
G1 X5.51515 Y1.11111 Z1.94924 F[#31] (point)
G1 X5.65657 Y1.11111 Z1.89236 F[#31] (point)
G1 X5.79798 Y1.11111 Z1.81844 F[#31] (point)
G1 X5.93939 Y1.11111 Z1.72447 F[#31] (point)
G1 X6.08081 Y1.11111 Z1.60553 F[#31] (point)
G1 X6.22222 Y1.11111 Z1.45262 F[#31] (point)
G1 X6.36364 Y1.11111 Z1.24607 F[#31] (point)
G1 X6.50505 Y1.11111 Z0.917749 F[#31] (point)
G1 X6.64646 Y1.11111 Z0 F[#31] (point)
G1 X14 Y1.11111 Z0 F[#31] (point)
;G1 X14 Y1.11111 Z22 (endrun)
;G1 X14 Y2.22222 Z22 (beginrun)
G1 X14 Y2.22222 Z0 F[#31] (point)
G1 X5.93939 Y2.22222 Z0 F[#31] (point)
G1 X5.79798 Y2.22222 Z0.790782 F[#31] (point)
G1 X5.65657 Y2.22222 Z1.02305 F[#31] (point)
G1 X5.51515 Y2.22222 Z1.15557 F[#31] (point)
G1 X5.37374 Y2.22222 Z1.24116 F[#31] (point)
G1 X5.23232 Y2.22222 Z1.29491 F[#31] (point)
G1 X5.09091 Y2.22222 Z1.33837 F[#31] (point)
G1 X4.94949 Y2.22222 Z1.38055 F[#31] (point)
G1 X4.80808 Y2.22222 Z1.42158 F[#31] (point)
G1 X4.66667 Y2.22222 Z1.46154 F[#31] (point)
G1 X4.52525 Y2.22222 Z1.50052 F[#31] (point)
G1 X4.38384 Y2.22222 Z1.53858 F[#31] (point)
G1 X4.24242 Y2.22222 Z1.5758 F[#31] (point)
G1 X4.10101 Y2.22222 Z1.61222 F[#31] (point)
G1 X3.9596 Y2.22222 Z1.6479 F[#31] (point)
G1 X3.81818 Y2.22222 Z1.68288 F[#31] (point)
G1 X3.67677 Y2.22222 Z1.71719 F[#31] (point)
G1 X3.53535 Y2.22222 Z1.75088 F[#31] (point)
G1 X3.39394 Y2.22222 Z1.78396 F[#31] (point)
G1 X3.25253 Y2.22222 Z1.81648 F[#31] (point)
G1 X3.11111 Y2.22222 Z1.84846 F[#31] (point)
G1 X2.9697 Y2.22222 Z1.87991 F[#31] (point)
G1 X2.82828 Y2.22222 Z1.91087 F[#31] (point)
G1 X2.68687 Y2.22222 Z1.94134 F[#31] (point)
G1 X2.54545 Y2.22222 Z1.97136 F[#31] (point)
G1 X2.40404 Y2.22222 Z2.00093 F[#31] (point)
G1 X2.26263 Y2.22222 Z2.03008 F[#31] (point)
G1 X2.12121 Y2.22222 Z2.05881 F[#31] (point)
G1 X1.9798 Y2.22222 Z2.08714 F[#31] (point)
G1 X1.83838 Y2.22222 Z2.11508 F[#31] (point)
G1 X1.69697 Y2.22222 Z2.14264 F[#31] (point)
G1 X1.55556 Y2.22222 Z2.16984 F[#31] (point)
G1 X1.41414 Y2.22222 Z2.19669 F[#31] (point)
G1 X1.27273 Y2.22222 Z2.22319 F[#31] (point)
G1 X1.13131 Y2.22222 Z2.24935 F[#31] (point)
G1 X0.989899 Y2.22222 Z2.27518 F[#31] (point)
G1 X0.848485 Y2.22222 Z2.30069 F[#31] (point)
G1 X0.707071 Y2.22222 Z2.32588 F[#31] (point)
G1 X0.565657 Y2.22222 Z2.35077 F[#31] (point)
G1 X0.424242 Y2.22222 Z2.37536 F[#31] (point)
G1 X0.282828 Y2.22222 Z2.39965 F[#31] (point)
G1 X0.141414 Y2.22222 Z2.42366 F[#31] (point)
G1 X0 Y2.22222 Z2.44738 F[#31] (point)
;G1 X0 Y2.22222 Z22 (endrun)
;G1 X0 Y3.33333 Z22 (beginrun)
G1 X0 Y3.33333 Z0 F[#31] (point)
G1 X14 Y3.33333 Z0 F[#31] (point)
;G1 X14 Y3.33333 Z22 (endrun)
;G1 X14 Y4.44444 Z22 (beginrun)
G1 X14 Y4.44444 Z0 F[#31] (point)
G1 X0 Y4.44444 Z0 F[#31] (point)
;G1 X0 Y4.44444 Z22 (endrun)
;G1 X0 Y5.55556 Z22 (beginrun)
G1 X0 Y5.55556 Z0 F[#31] (point)
G1 X14 Y5.55556 Z0 F[#31] (point)
;G1 X14 Y5.55556 Z22 (endrun)
;G1 X14 Y6.66667 Z22 (beginrun)
G1 X14 Y6.66667 Z0 F[#31] (point)
G1 X0 Y6.66667 Z0 F[#31] (point)
;G1 X0 Y6.66667 Z22 (endrun)
;G1 X0 Y7.77778 Z22 (beginrun)
G1 X0 Y7.77778 Z0 F[#31] (point)
G1 X14 Y7.77778 Z0 F[#31] (point)
;G1 X14 Y7.77778 Z22 (endrun)
;G1 X14 Y8.88889 Z22 (beginrun)
G1 X14 Y8.88889 Z0 F[#31] (point)
G1 X0 Y8.88889 Z0 F[#31] (point)
;G1 X0 Y8.88889 Z22 (endrun)
;G1 X0 Y10 Z22 (beginrun)
G1 X0 Y10 Z0 F[#31] (point)
G1 X14 Y10 Z0 F[#31] (point)
;G1 X14 Y10 Z22 (endrun)
;G1 X14 Y10 Z22 (endpath)
G0 X14 Y0 Z22 A60 (beginpath)
;G1 X14 Y0 Z22 (beginrun)
G1 X14 Y0 Z4 F[#31] (point)
G1 X0 Y0 Z4 F[#31] (point)
;G1 X0 Y0 Z22 (endrun)
;G1 X0 Y1.11111 Z22 (beginrun)
G1 X0 Y1.11111 Z4 F[#31] (point)
G1 X14 Y1.11111 Z4 F[#31] (point)
;G1 X14 Y1.11111 Z22 (endrun)
;G1 X14 Y2.22222 Z22 (beginrun)
G1 X14 Y2.22222 Z4 F[#31] (point)
G1 X0 Y2.22222 Z4 F[#31] (point)
;G1 X0 Y2.22222 Z22 (endrun)
;G1 X0 Y3.33333 Z22 (beginrun)
G1 X0 Y3.33333 Z4 F[#31] (point)
G1 X14 Y3.33333 Z4 F[#31] (point)
;G1 X14 Y3.33333 Z22 (endrun)
;G1 X14 Y4.44444 Z22 (beginrun)
G1 X14 Y4.44444 Z4 F[#31] (point)
G1 X0 Y4.44444 Z4 F[#31] (point)
;G1 X0 Y4.44444 Z22 (endrun)
;G1 X0 Y5.55556 Z22 (beginrun)
G1 X0 Y5.55556 Z4 F[#31] (point)
G1 X14 Y5.55556 Z4 F[#31] (point)
;G1 X14 Y5.55556 Z22 (endrun)
;G1 X14 Y6.66667 Z22 (beginrun)
G1 X14 Y6.66667 Z4 F[#31] (point)
G1 X0 Y6.66667 Z4 F[#31] (point)
;G1 X0 Y6.66667 Z22 (endrun)
;G1 X0 Y7.77778 Z22 (beginrun)
G1 X0 Y7.77778 Z4 F[#31] (point)
G1 X14 Y7.77778 Z4 F[#31] (point)
;G1 X14 Y7.77778 Z22 (endrun)
;G1 X14 Y8.88889 Z22 (beginrun)
G1 X14 Y8.88889 Z4 F[#31] (point)
G1 X0 Y8.88889 Z4 F[#31] (point)
;G1 X0 Y8.88889 Z22 (endrun)
;G1 X0 Y10 Z22 (beginrun)
G1 X0 Y10 Z4 F[#31] (point)
G1 X14 Y10 Z4 F[#31] (point)
;G1 X14 Y10 Z22 (endrun)
;G1 X14 Y10 Z22 (endpath)
G0 X14 Y0 Z22 A60 (beginpath)
;G1 X14 Y0 Z22 (beginrun)
G1 X14 Y0 Z2 F[#31] (point)
G1 X5.93939 Y0 Z2 F[#31] (point)
G1 X5.79798 Y0 Z2.01036 F[#31] (point)
G1 X5.65657 Y0 Z2.08369 F[#31] (point)
G1 X5.51515 Y0 Z2.14015 F[#31] (point)
G1 X5.37374 Y0 Z2.1816 F[#31] (point)
G1 X5.23232 Y0 Z2.20923 F[#31] (point)
G1 X5.09091 Y0 Z2.2287 F[#31] (point)
G1 X4.94949 Y0 Z2.24798 F[#31] (point)
G1 X4.80808 Y0 Z2.26718 F[#31] (point)
G1 X4.66667 Y0 Z2.28628 F[#31] (point)
G1 X4.52525 Y0 Z2.3053 F[#31] (point)
G1 X0 Y0 Z2.91303 F[#31] (point)
;G1 X0 Y0 Z22 (endrun)
;G1 X0 Y1.11111 Z22 (beginrun)
G1 X0 Y1.11111 Z2.87423 F[#31] (point)
G1 X0.141414 Y1.11111 Z2.84944 F[#31] (point)
G1 X0.282828 Y1.11111 Z2.82455 F[#31] (point)
G1 X0.424242 Y1.11111 Z2.79955 F[#31] (point)
G1 X0.565657 Y1.11111 Z2.77444 F[#31] (point)
G1 X0.707071 Y1.11111 Z2.74922 F[#31] (point)
G1 X0.848485 Y1.11111 Z2.72388 F[#31] (point)
G1 X0.989899 Y1.11111 Z2.69844 F[#31] (point)
G1 X1.13131 Y1.11111 Z2.67287 F[#31] (point)
G1 X1.27273 Y1.11111 Z2.6472 F[#31] (point)
G1 X1.41414 Y1.11111 Z2.6214 F[#31] (point)
G1 X1.55556 Y1.11111 Z2.59549 F[#31] (point)
G1 X1.69697 Y1.11111 Z2.56945 F[#31] (point)
G1 X1.83838 Y1.11111 Z2.5433 F[#31] (point)
G1 X1.9798 Y1.11111 Z2.51702 F[#31] (point)
G1 X2.12121 Y1.11111 Z2.49062 F[#31] (point)
G1 X2.26263 Y1.11111 Z2.46409 F[#31] (point)
G1 X2.40404 Y1.11111 Z2.43744 F[#31] (point)
G1 X2.54545 Y1.11111 Z2.41065 F[#31] (point)
G1 X2.68687 Y1.11111 Z2.38373 F[#31] (point)
G1 X2.82828 Y1.11111 Z2.35668 F[#31] (point)
G1 X2.9697 Y1.11111 Z2.3295 F[#31] (point)
G1 X3.11111 Y1.11111 Z2.30218 F[#31] (point)
G1 X3.25253 Y1.11111 Z2.27472 F[#31] (point)
G1 X3.39394 Y1.11111 Z2.24711 F[#31] (point)
G1 X3.53535 Y1.11111 Z2.21937 F[#31] (point)
G1 X3.67677 Y1.11111 Z2.19148 F[#31] (point)
G1 X3.81818 Y1.11111 Z2.16343 F[#31] (point)
G1 X3.9596 Y1.11111 Z2.13524 F[#31] (point)
G1 X4.10101 Y1.11111 Z2.1069 F[#31] (point)
G1 X4.24242 Y1.11111 Z2.07839 F[#31] (point)
G1 X4.38384 Y1.11111 Z2.04973 F[#31] (point)
G1 X4.52525 Y1.11111 Z2.02091 F[#31] (point)
G1 X4.66667 Y1.11111 Z2 F[#31] (point)
G1 X14 Y1.11111 Z2 F[#31] (point)
;G1 X14 Y1.11111 Z22 (endrun)
;G1 X14 Y2.22222 Z22 (beginrun)
G1 X14 Y2.22222 Z2 F[#31] (point)
G1 X0 Y2.22222 Z2 F[#31] (point)
;G1 X0 Y2.22222 Z22 (endrun)
;G1 X0 Y3.33333 Z22 (beginrun)
G1 X0 Y3.33333 Z2 F[#31] (point)
G1 X14 Y3.33333 Z2 F[#31] (point)
;G1 X14 Y3.33333 Z22 (endrun)
;G1 X14 Y4.44444 Z22 (beginrun)
G1 X14 Y4.44444 Z2 F[#31] (point)
G1 X0 Y4.44444 Z2 F[#31] (point)
;G1 X0 Y4.44444 Z22 (endrun)
;G1 X0 Y5.55556 Z22 (beginrun)
G1 X0 Y5.55556 Z2 F[#31] (point)
G1 X14 Y5.55556 Z2 F[#31] (point)
;G1 X14 Y5.55556 Z22 (endrun)
;G1 X14 Y6.66667 Z22 (beginrun)
G1 X14 Y6.66667 Z2 F[#31] (point)
G1 X0 Y6.66667 Z2 F[#31] (point)
;G1 X0 Y6.66667 Z22 (endrun)
;G1 X0 Y7.77778 Z22 (beginrun)
G1 X0 Y7.77778 Z2 F[#31] (point)
G1 X14 Y7.77778 Z2 F[#31] (point)
;G1 X14 Y7.77778 Z22 (endrun)
;G1 X14 Y8.88889 Z22 (beginrun)
G1 X14 Y8.88889 Z2 F[#31] (point)
G1 X0 Y8.88889 Z2 F[#31] (point)
;G1 X0 Y8.88889 Z22 (endrun)
;G1 X0 Y10 Z22 (beginrun)
G1 X0 Y10 Z2 F[#31] (point)
G1 X14 Y10 Z2 F[#31] (point)
;G1 X14 Y10 Z22 (endrun)
;G1 X14 Y10 Z22 (endpath)
G0 X14 Y0 Z22 A60 (beginpath)
;G1 X14 Y0 Z22 (beginrun)
G1 X14 Y0 Z0 F[#31] (point)
G1 X6.64646 Y0 Z0 F[#31] (point)
G1 X6.50505 Y0 Z1.13141 F[#31] (point)
G1 X6.36364 Y0 Z1.44624 F[#31] (point)
G1 X6.22222 Y0 Z1.64873 F[#31] (point)
G1 X6.08081 Y0 Z1.79957 F[#31] (point)
G1 X5.93939 Y0 Z1.91724 F[#31] (point)
G1 X5.79798 Y0 Z2.01036 F[#31] (point)
G1 X5.65657 Y0 Z2.08369 F[#31] (point)
G1 X5.51515 Y0 Z2.14015 F[#31] (point)
G1 X5.37374 Y0 Z2.1816 F[#31] (point)
G1 X5.23232 Y0 Z2.20923 F[#31] (point)
G1 X5.09091 Y0 Z2.2287 F[#31] (point)
G1 X4.94949 Y0 Z2.24798 F[#31] (point)
G1 X4.80808 Y0 Z2.26718 F[#31] (point)
G1 X4.66667 Y0 Z2.28628 F[#31] (point)
G1 X4.52525 Y0 Z2.3053 F[#31] (point)
G1 X0 Y0 Z2.91303 F[#31] (point)
;G1 X0 Y0 Z22 (endrun)
;G1 X0 Y1.11111 Z22 (beginrun)
G1 X0 Y1.11111 Z2.87423 F[#31] (point)
G1 X0.141414 Y1.11111 Z2.84944 F[#31] (point)
G1 X0.282828 Y1.11111 Z2.82455 F[#31] (point)
G1 X0.424242 Y1.11111 Z2.79955 F[#31] (point)
G1 X0.565657 Y1.11111 Z2.77444 F[#31] (point)
G1 X0.707071 Y1.11111 Z2.74922 F[#31] (point)
G1 X0.848485 Y1.11111 Z2.72388 F[#31] (point)
G1 X0.989899 Y1.11111 Z2.69844 F[#31] (point)
G1 X1.13131 Y1.11111 Z2.67287 F[#31] (point)
G1 X1.27273 Y1.11111 Z2.6472 F[#31] (point)
G1 X1.41414 Y1.11111 Z2.6214 F[#31] (point)
G1 X1.55556 Y1.11111 Z2.59549 F[#31] (point)
G1 X1.69697 Y1.11111 Z2.56945 F[#31] (point)
G1 X1.83838 Y1.11111 Z2.5433 F[#31] (point)
G1 X1.9798 Y1.11111 Z2.51702 F[#31] (point)
G1 X2.12121 Y1.11111 Z2.49062 F[#31] (point)
G1 X2.26263 Y1.11111 Z2.46409 F[#31] (point)
G1 X2.40404 Y1.11111 Z2.43744 F[#31] (point)
G1 X2.54545 Y1.11111 Z2.41065 F[#31] (point)
G1 X2.68687 Y1.11111 Z2.38373 F[#31] (point)
G1 X2.82828 Y1.11111 Z2.35668 F[#31] (point)
G1 X2.9697 Y1.11111 Z2.3295 F[#31] (point)
G1 X3.11111 Y1.11111 Z2.30218 F[#31] (point)
G1 X3.25253 Y1.11111 Z2.27472 F[#31] (point)
G1 X3.39394 Y1.11111 Z2.24711 F[#31] (point)
G1 X3.53535 Y1.11111 Z2.21937 F[#31] (point)
G1 X3.67677 Y1.11111 Z2.19148 F[#31] (point)
G1 X3.81818 Y1.11111 Z2.16343 F[#31] (point)
G1 X3.9596 Y1.11111 Z2.13524 F[#31] (point)
G1 X4.10101 Y1.11111 Z2.1069 F[#31] (point)
G1 X4.24242 Y1.11111 Z2.07839 F[#31] (point)
G1 X4.38384 Y1.11111 Z2.04973 F[#31] (point)
G1 X4.52525 Y1.11111 Z2.02091 F[#31] (point)
G1 X4.66667 Y1.11111 Z1.99191 F[#31] (point)
G1 X4.80808 Y1.11111 Z1.96275 F[#31] (point)
G1 X4.94949 Y1.11111 Z1.93342 F[#31] (point)
G1 X5.09091 Y1.11111 Z1.90391 F[#31] (point)
G1 X5.23232 Y1.11111 Z1.87422 F[#31] (point)
G1 X5.37374 Y1.11111 Z1.83857 F[#31] (point)
G1 X5.51515 Y1.11111 Z1.78472 F[#31] (point)
G1 X5.65657 Y1.11111 Z1.70958 F[#31] (point)
G1 X5.79798 Y1.11111 Z1.60818 F[#31] (point)
G1 X5.93939 Y1.11111 Z1.47093 F[#31] (point)
G1 X6.08081 Y1.11111 Z1.2748 F[#31] (point)
G1 X6.22222 Y1.11111 Z0.912011 F[#31] (point)
G1 X6.36364 Y1.11111 Z0 F[#31] (point)
G1 X14 Y1.11111 Z0 F[#31] (point)
;G1 X14 Y1.11111 Z22 (endrun)
;G1 X14 Y2.22222 Z22 (beginrun)
G1 X14 Y2.22222 Z0 F[#31] (point)
G1 X0 Y2.22222 Z0 F[#31] (point)
;G1 X0 Y2.22222 Z22 (endrun)
;G1 X0 Y3.33333 Z22 (beginrun)
G1 X0 Y3.33333 Z0 F[#31] (point)
G1 X14 Y3.33333 Z0 F[#31] (point)
;G1 X14 Y3.33333 Z22 (endrun)
;G1 X14 Y4.44444 Z22 (beginrun)
G1 X14 Y4.44444 Z0 F[#31] (point)
G1 X0 Y4.44444 Z0 F[#31] (point)
;G1 X0 Y4.44444 Z22 (endrun)
;G1 X0 Y5.55556 Z22 (beginrun)
G1 X0 Y5.55556 Z0 F[#31] (point)
G1 X14 Y5.55556 Z0 F[#31] (point)
;G1 X14 Y5.55556 Z22 (endrun)
;G1 X14 Y6.66667 Z22 (beginrun)
G1 X14 Y6.66667 Z0 F[#31] (point)
G1 X0 Y6.66667 Z0 F[#31] (point)
;G1 X0 Y6.66667 Z22 (endrun)
;G1 X0 Y7.77778 Z22 (beginrun)
G1 X0 Y7.77778 Z0 F[#31] (point)
G1 X14 Y7.77778 Z0 F[#31] (point)
;G1 X14 Y7.77778 Z22 (endrun)
;G1 X14 Y8.88889 Z22 (beginrun)
G1 X14 Y8.88889 Z0 F[#31] (point)
G1 X0 Y8.88889 Z0 F[#31] (point)
;G1 X0 Y8.88889 Z22 (endrun)
;G1 X0 Y10 Z22 (beginrun)
G1 X0 Y10 Z0 F[#31] (point)
G1 X14 Y10 Z0 F[#31] (point)
;G1 X14 Y10 Z22 (endrun)
;G1 X14 Y10 Z22 (endpath)
G0 X14 Y0 Z22 A80 (beginpath)
;G1 X14 Y0 Z22 (beginrun)
G1 X14 Y0 Z4 F[#31] (point)
G1 X0 Y0 Z4 F[#31] (point)
;G1 X0 Y0 Z22 (endrun)
;G1 X0 Y1.11111 Z22 (beginrun)
G1 X0 Y1.11111 Z4 F[#31] (point)
G1 X14 Y1.11111 Z4 F[#31] (point)
;G1 X14 Y1.11111 Z22 (endrun)
;G1 X14 Y2.22222 Z22 (beginrun)
G1 X14 Y2.22222 Z4 F[#31] (point)
G1 X0 Y2.22222 Z4 F[#31] (point)
;G1 X0 Y2.22222 Z22 (endrun)
;G1 X0 Y3.33333 Z22 (beginrun)
G1 X0 Y3.33333 Z4 F[#31] (point)
G1 X14 Y3.33333 Z4 F[#31] (point)
;G1 X14 Y3.33333 Z22 (endrun)
;G1 X14 Y4.44444 Z22 (beginrun)
G1 X14 Y4.44444 Z4 F[#31] (point)
G1 X0 Y4.44444 Z4 F[#31] (point)
;G1 X0 Y4.44444 Z22 (endrun)
;G1 X0 Y5.55556 Z22 (beginrun)
G1 X0 Y5.55556 Z4 F[#31] (point)
G1 X14 Y5.55556 Z4 F[#31] (point)
;G1 X14 Y5.55556 Z22 (endrun)
;G1 X14 Y6.66667 Z22 (beginrun)
G1 X14 Y6.66667 Z4 F[#31] (point)
G1 X0 Y6.66667 Z4 F[#31] (point)
;G1 X0 Y6.66667 Z22 (endrun)
;G1 X0 Y7.77778 Z22 (beginrun)
G1 X0 Y7.77778 Z4 F[#31] (point)
G1 X14 Y7.77778 Z4 F[#31] (point)
;G1 X14 Y7.77778 Z22 (endrun)
;G1 X14 Y8.88889 Z22 (beginrun)
G1 X14 Y8.88889 Z4 F[#31] (point)
G1 X0 Y8.88889 Z4 F[#31] (point)
;G1 X0 Y8.88889 Z22 (endrun)
;G1 X0 Y10 Z22 (beginrun)
G1 X0 Y10 Z4 F[#31] (point)
G1 X14 Y10 Z4 F[#31] (point)
;G1 X14 Y10 Z22 (endrun)
;G1 X14 Y10 Z22 (endpath)
G0 X14 Y0 Z22 A80 (beginpath)
;G1 X14 Y0 Z22 (beginrun)
G1 X14 Y0 Z2 F[#31] (point)
G1 X5.23232 Y0 Z2 F[#31] (point)
G1 X5.09091 Y0 Z2.01613 F[#31] (point)
G1 X4.66667 Y0 Z2.09112 F[#31] (point)
G1 X4.24242 Y0 Z2.16599 F[#31] (point)
G1 X3.81818 Y0 Z2.24073 F[#31] (point)
G1 X3.39394 Y0 Z2.31535 F[#31] (point)
G1 X2.9697 Y0 Z2.38986 F[#31] (point)
G1 X2.54545 Y0 Z2.46424 F[#31] (point)
G1 X2.12121 Y0 Z2.5385 F[#31] (point)
G1 X1.69697 Y0 Z2.61265 F[#31] (point)
G1 X1.27273 Y0 Z2.68668 F[#31] (point)
G1 X0.848485 Y0 Z2.7606 F[#31] (point)
G1 X0.424242 Y0 Z2.8344 F[#31] (point)
G1 X0 Y0 Z2.90809 F[#31] (point)
;G1 X0 Y0 Z22 (endrun)
;G1 X0 Y1.11111 Z22 (beginrun)
G1 X0 Y1.11111 Z2 F[#31] (point)
G1 X14 Y1.11111 Z2 F[#31] (point)
;G1 X14 Y1.11111 Z22 (endrun)
;G1 X14 Y2.22222 Z22 (beginrun)
G1 X14 Y2.22222 Z2 F[#31] (point)
G1 X0 Y2.22222 Z2 F[#31] (point)
;G1 X0 Y2.22222 Z22 (endrun)
;G1 X0 Y3.33333 Z22 (beginrun)
G1 X0 Y3.33333 Z2 F[#31] (point)
G1 X14 Y3.33333 Z2 F[#31] (point)
;G1 X14 Y3.33333 Z22 (endrun)
;G1 X14 Y4.44444 Z22 (beginrun)
G1 X14 Y4.44444 Z2 F[#31] (point)
G1 X0 Y4.44444 Z2 F[#31] (point)
;G1 X0 Y4.44444 Z22 (endrun)
;G1 X0 Y5.55556 Z22 (beginrun)
G1 X0 Y5.55556 Z2 F[#31] (point)
G1 X14 Y5.55556 Z2 F[#31] (point)
;G1 X14 Y5.55556 Z22 (endrun)
;G1 X14 Y6.66667 Z22 (beginrun)
G1 X14 Y6.66667 Z2 F[#31] (point)
G1 X0 Y6.66667 Z2 F[#31] (point)
;G1 X0 Y6.66667 Z22 (endrun)
;G1 X0 Y7.77778 Z22 (beginrun)
G1 X0 Y7.77778 Z2 F[#31] (point)
G1 X14 Y7.77778 Z2 F[#31] (point)
;G1 X14 Y7.77778 Z22 (endrun)
;G1 X14 Y8.88889 Z22 (beginrun)
G1 X14 Y8.88889 Z2 F[#31] (point)
G1 X0 Y8.88889 Z2 F[#31] (point)
;G1 X0 Y8.88889 Z22 (endrun)
;G1 X0 Y10 Z22 (beginrun)
G1 X0 Y10 Z2 F[#31] (point)
G1 X14 Y10 Z2 F[#31] (point)
;G1 X14 Y10 Z22 (endrun)
;G1 X14 Y10 Z22 (endpath)
G0 X14 Y0 Z22 A80 (beginpath)
;G1 X14 Y0 Z22 (beginrun)
G1 X14 Y0 Z0 F[#31] (point)
G1 X6.50505 Y0 Z0 F[#31] (point)
G1 X6.36364 Y0 Z1.05998 F[#31] (point)
G1 X6.22222 Y0 Z1.34311 F[#31] (point)
G1 X6.08081 Y0 Z1.52818 F[#31] (point)
G1 X5.93939 Y0 Z1.66539 F[#31] (point)
G1 X5.79798 Y0 Z1.77107 F[#31] (point)
G1 X5.65657 Y0 Z1.85294 F[#31] (point)
G1 X5.51515 Y0 Z1.91531 F[#31] (point)
G1 X5.37374 Y0 Z1.96077 F[#31] (point)
G1 X5.23232 Y0 Z1.99111 F[#31] (point)
G1 X5.09091 Y0 Z2.01613 F[#31] (point)
G1 X4.66667 Y0 Z2.09112 F[#31] (point)
G1 X4.24242 Y0 Z2.16599 F[#31] (point)
G1 X3.81818 Y0 Z2.24073 F[#31] (point)
G1 X3.39394 Y0 Z2.31535 F[#31] (point)
G1 X2.9697 Y0 Z2.38986 F[#31] (point)
G1 X2.54545 Y0 Z2.46424 F[#31] (point)
G1 X2.12121 Y0 Z2.5385 F[#31] (point)
G1 X1.69697 Y0 Z2.61265 F[#31] (point)
G1 X1.27273 Y0 Z2.68668 F[#31] (point)
G1 X0.848485 Y0 Z2.7606 F[#31] (point)
G1 X0.424242 Y0 Z2.8344 F[#31] (point)
G1 X0 Y0 Z2.90809 F[#31] (point)
;G1 X0 Y0 Z22 (endrun)
;G1 X0 Y1.11111 Z22 (beginrun)
G1 X0 Y1.11111 Z0 F[#31] (point)
G1 X14 Y1.11111 Z0 F[#31] (point)
;G1 X14 Y1.11111 Z22 (endrun)
;G1 X14 Y2.22222 Z22 (beginrun)
G1 X14 Y2.22222 Z0 F[#31] (point)
G1 X0 Y2.22222 Z0 F[#31] (point)
;G1 X0 Y2.22222 Z22 (endrun)
;G1 X0 Y3.33333 Z22 (beginrun)
G1 X0 Y3.33333 Z0 F[#31] (point)
G1 X14 Y3.33333 Z0 F[#31] (point)
;G1 X14 Y3.33333 Z22 (endrun)
;G1 X14 Y4.44444 Z22 (beginrun)
G1 X14 Y4.44444 Z0 F[#31] (point)
G1 X0 Y4.44444 Z0 F[#31] (point)
;G1 X0 Y4.44444 Z22 (endrun)
;G1 X0 Y5.55556 Z22 (beginrun)
G1 X0 Y5.55556 Z0 F[#31] (point)
G1 X14 Y5.55556 Z0 F[#31] (point)
;G1 X14 Y5.55556 Z22 (endrun)
;G1 X14 Y6.66667 Z22 (beginrun)
G1 X14 Y6.66667 Z0 F[#31] (point)
G1 X0 Y6.66667 Z0 F[#31] (point)
;G1 X0 Y6.66667 Z22 (endrun)
;G1 X0 Y7.77778 Z22 (beginrun)
G1 X0 Y7.77778 Z0 F[#31] (point)
G1 X14 Y7.77778 Z0 F[#31] (point)
;G1 X14 Y7.77778 Z22 (endrun)
;G1 X14 Y8.88889 Z22 (beginrun)
G1 X14 Y8.88889 Z0 F[#31] (point)
G1 X0 Y8.88889 Z0 F[#31] (point)
;G1 X0 Y8.88889 Z22 (endrun)
;G1 X0 Y10 Z22 (beginrun)
G1 X0 Y10 Z0 F[#31] (point)
G1 X14 Y10 Z0 F[#31] (point)
;G1 X14 Y10 Z22 (endrun)
;G1 X14 Y10 Z22 (endpath)
G0 X14 Y0 Z22 A100 (beginpath)
;G1 X14 Y0 Z22 (beginrun)
G1 X14 Y0 Z4 F[#31] (point)
G1 X0 Y0 Z4 F[#31] (point)
;G1 X0 Y0 Z22 (endrun)
;G1 X0 Y1.11111 Z22 (beginrun)
G1 X0 Y1.11111 Z4 F[#31] (point)
G1 X14 Y1.11111 Z4 F[#31] (point)
;G1 X14 Y1.11111 Z22 (endrun)
;G1 X14 Y2.22222 Z22 (beginrun)
G1 X14 Y2.22222 Z4 F[#31] (point)
G1 X0 Y2.22222 Z4 F[#31] (point)
;G1 X0 Y2.22222 Z22 (endrun)
;G1 X0 Y3.33333 Z22 (beginrun)
G1 X0 Y3.33333 Z4 F[#31] (point)
G1 X14 Y3.33333 Z4 F[#31] (point)
;G1 X14 Y3.33333 Z22 (endrun)
;G1 X14 Y4.44444 Z22 (beginrun)
G1 X14 Y4.44444 Z4 F[#31] (point)
G1 X0 Y4.44444 Z4 F[#31] (point)
;G1 X0 Y4.44444 Z22 (endrun)
;G1 X0 Y5.55556 Z22 (beginrun)
G1 X0 Y5.55556 Z4 F[#31] (point)
G1 X14 Y5.55556 Z4 F[#31] (point)
;G1 X14 Y5.55556 Z22 (endrun)
;G1 X14 Y6.66667 Z22 (beginrun)
G1 X14 Y6.66667 Z4 F[#31] (point)
G1 X0 Y6.66667 Z4 F[#31] (point)
;G1 X0 Y6.66667 Z22 (endrun)
;G1 X0 Y7.77778 Z22 (beginrun)
G1 X0 Y7.77778 Z4 F[#31] (point)
G1 X14 Y7.77778 Z4 F[#31] (point)
;G1 X14 Y7.77778 Z22 (endrun)
;G1 X14 Y8.88889 Z22 (beginrun)
G1 X14 Y8.88889 Z4 F[#31] (point)
G1 X0 Y8.88889 Z4 F[#31] (point)
;G1 X0 Y8.88889 Z22 (endrun)
;G1 X0 Y10 Z22 (beginrun)
G1 X0 Y10 Z4 F[#31] (point)
G1 X14 Y10 Z4 F[#31] (point)
;G1 X14 Y10 Z22 (endrun)
;G1 X14 Y10 Z22 (endpath)
G0 X14 Y0 Z22 A100 (beginpath)
;G1 X14 Y0 Z22 (beginrun)
G1 X14 Y0 Z2 F[#31] (point)
G1 X0 Y0 Z2 F[#31] (point)
;G1 X0 Y0 Z22 (endrun)
;G1 X0 Y1.11111 Z22 (beginrun)
G1 X0 Y1.11111 Z2 F[#31] (point)
G1 X14 Y1.11111 Z2 F[#31] (point)
;G1 X14 Y1.11111 Z22 (endrun)
;G1 X14 Y2.22222 Z22 (beginrun)
G1 X14 Y2.22222 Z2 F[#31] (point)
G1 X0 Y2.22222 Z2 F[#31] (point)
;G1 X0 Y2.22222 Z22 (endrun)
;G1 X0 Y3.33333 Z22 (beginrun)
G1 X0 Y3.33333 Z2 F[#31] (point)
G1 X14 Y3.33333 Z2 F[#31] (point)
;G1 X14 Y3.33333 Z22 (endrun)
;G1 X14 Y4.44444 Z22 (beginrun)
G1 X14 Y4.44444 Z2 F[#31] (point)
G1 X0 Y4.44444 Z2 F[#31] (point)
;G1 X0 Y4.44444 Z22 (endrun)
;G1 X0 Y5.55556 Z22 (beginrun)
G1 X0 Y5.55556 Z2 F[#31] (point)
G1 X14 Y5.55556 Z2 F[#31] (point)
;G1 X14 Y5.55556 Z22 (endrun)
;G1 X14 Y6.66667 Z22 (beginrun)
G1 X14 Y6.66667 Z2 F[#31] (point)
G1 X0 Y6.66667 Z2 F[#31] (point)
;G1 X0 Y6.66667 Z22 (endrun)
;G1 X0 Y7.77778 Z22 (beginrun)
G1 X0 Y7.77778 Z2 F[#31] (point)
G1 X14 Y7.77778 Z2 F[#31] (point)
;G1 X14 Y7.77778 Z22 (endrun)
;G1 X14 Y8.88889 Z22 (beginrun)
G1 X14 Y8.88889 Z2 F[#31] (point)
G1 X0 Y8.88889 Z2 F[#31] (point)
;G1 X0 Y8.88889 Z22 (endrun)
;G1 X0 Y10 Z22 (beginrun)
G1 X0 Y10 Z2 F[#31] (point)
G1 X14 Y10 Z2 F[#31] (point)
;G1 X14 Y10 Z22 (endrun)
;G1 X14 Y10 Z22 (endpath)
G0 X14 Y0 Z22 A100 (beginpath)
;G1 X14 Y0 Z22 (beginrun)
G1 X14 Y0 Z0 F[#31] (point)
G1 X5.93939 Y0 Z0 F[#31] (point)
G1 X5.79798 Y0 Z0.538447 F[#31] (point)
G1 X5.65657 Y0 Z0.769341 F[#31] (point)
G1 X5.51515 Y0 Z0.901488 F[#31] (point)
G1 X5.37374 Y0 Z0.986913 F[#31] (point)
G1 X5.23232 Y0 Z1.04014 F[#31] (point)
G1 X5.09091 Y0 Z1.06726 F[#31] (point)
G1 X4.80808 Y0 Z1.10082 F[#31] (point)
G1 X4.52525 Y0 Z1.13411 F[#31] (point)
G1 X4.38384 Y0 Z1.15065 F[#31] (point)
G1 X4.24242 Y0 Z1.16711 F[#31] (point)
G1 X4.10101 Y0 Z1.1835 F[#31] (point)
G1 X3.9596 Y0 Z1.19982 F[#31] (point)
G1 X3.81818 Y0 Z1.21605 F[#31] (point)
G1 X3.67677 Y0 Z1.23221 F[#31] (point)
G1 X3.53535 Y0 Z1.24828 F[#31] (point)
G1 X3.39394 Y0 Z1.26427 F[#31] (point)
G1 X3.25253 Y0 Z1.28017 F[#31] (point)
G1 X3.11111 Y0 Z1.29598 F[#31] (point)
G1 X2.9697 Y0 Z1.31169 F[#31] (point)
G1 X2.82828 Y0 Z1.32732 F[#31] (point)
G1 X2.68687 Y0 Z1.34284 F[#31] (point)
G1 X2.54545 Y0 Z1.35826 F[#31] (point)
G1 X2.40404 Y0 Z1.37358 F[#31] (point)
G1 X2.26263 Y0 Z1.3888 F[#31] (point)
G1 X2.12121 Y0 Z1.4039 F[#31] (point)
G1 X1.9798 Y0 Z1.41889 F[#31] (point)
G1 X1.83838 Y0 Z1.43376 F[#31] (point)
G1 X1.69697 Y0 Z1.4485 F[#31] (point)
G1 X1.55556 Y0 Z1.46312 F[#31] (point)
G1 X1.41414 Y0 Z1.47761 F[#31] (point)
G1 X1.27273 Y0 Z1.49196 F[#31] (point)
G1 X1.13131 Y0 Z1.50617 F[#31] (point)
G1 X0.989899 Y0 Z1.52023 F[#31] (point)
G1 X0.848485 Y0 Z1.53413 F[#31] (point)
G1 X0.707071 Y0 Z1.54787 F[#31] (point)
G1 X0.565657 Y0 Z1.56145 F[#31] (point)
G1 X0.424242 Y0 Z1.57485 F[#31] (point)
G1 X0.282828 Y0 Z1.58806 F[#31] (point)
G1 X0.141414 Y0 Z1.60109 F[#31] (point)
G1 X0 Y0 Z1.6139 F[#31] (point)
;G1 X0 Y0 Z22 (endrun)
;G1 X0 Y1.11111 Z22 (beginrun)
G1 X0 Y1.11111 Z0 F[#31] (point)
G1 X14 Y1.11111 Z0 F[#31] (point)
;G1 X14 Y1.11111 Z22 (endrun)
;G1 X14 Y2.22222 Z22 (beginrun)
G1 X14 Y2.22222 Z0 F[#31] (point)
G1 X0 Y2.22222 Z0 F[#31] (point)
;G1 X0 Y2.22222 Z22 (endrun)
;G1 X0 Y3.33333 Z22 (beginrun)
G1 X0 Y3.33333 Z0 F[#31] (point)
G1 X14 Y3.33333 Z0 F[#31] (point)
;G1 X14 Y3.33333 Z22 (endrun)
;G1 X14 Y4.44444 Z22 (beginrun)
G1 X14 Y4.44444 Z0 F[#31] (point)
G1 X0 Y4.44444 Z0 F[#31] (point)
;G1 X0 Y4.44444 Z22 (endrun)
;G1 X0 Y5.55556 Z22 (beginrun)
G1 X0 Y5.55556 Z0 F[#31] (point)
G1 X14 Y5.55556 Z0 F[#31] (point)
;G1 X14 Y5.55556 Z22 (endrun)
;G1 X14 Y6.66667 Z22 (beginrun)
G1 X14 Y6.66667 Z0 F[#31] (point)
G1 X0 Y6.66667 Z0 F[#31] (point)
;G1 X0 Y6.66667 Z22 (endrun)
;G1 X0 Y7.77778 Z22 (beginrun)
G1 X0 Y7.77778 Z0 F[#31] (point)
G1 X14 Y7.77778 Z0 F[#31] (point)
;G1 X14 Y7.77778 Z22 (endrun)
;G1 X14 Y8.88889 Z22 (beginrun)
G1 X14 Y8.88889 Z0 F[#31] (point)
G1 X0 Y8.88889 Z0 F[#31] (point)
;G1 X0 Y8.88889 Z22 (endrun)
;G1 X0 Y10 Z22 (beginrun)
G1 X0 Y10 Z0 F[#31] (point)
G1 X14 Y10 Z0 F[#31] (point)
;G1 X14 Y10 Z22 (endrun)
;G1 X14 Y10 Z22 (endpath)
G0 X14 Y0 Z22 A120 (beginpath)
;G1 X14 Y0 Z22 (beginrun)
G1 X14 Y0 Z4 F[#31] (point)
G1 X0 Y0 Z4 F[#31] (point)
;G1 X0 Y0 Z22 (endrun)
;G1 X0 Y1.11111 Z22 (beginrun)
G1 X0 Y1.11111 Z4 F[#31] (point)
G1 X14 Y1.11111 Z4 F[#31] (point)
;G1 X14 Y1.11111 Z22 (endrun)
;G1 X14 Y2.22222 Z22 (beginrun)
G1 X14 Y2.22222 Z4 F[#31] (point)
G1 X0 Y2.22222 Z4 F[#31] (point)
;G1 X0 Y2.22222 Z22 (endrun)
;G1 X0 Y3.33333 Z22 (beginrun)
G1 X0 Y3.33333 Z4 F[#31] (point)
G1 X14 Y3.33333 Z4 F[#31] (point)
;G1 X14 Y3.33333 Z22 (endrun)
;G1 X14 Y4.44444 Z22 (beginrun)
G1 X14 Y4.44444 Z4 F[#31] (point)
G1 X0 Y4.44444 Z4 F[#31] (point)
;G1 X0 Y4.44444 Z22 (endrun)
;G1 X0 Y5.55556 Z22 (beginrun)
G1 X0 Y5.55556 Z4 F[#31] (point)
G1 X14 Y5.55556 Z4 F[#31] (point)
;G1 X14 Y5.55556 Z22 (endrun)
;G1 X14 Y6.66667 Z22 (beginrun)
G1 X14 Y6.66667 Z4 F[#31] (point)
G1 X0 Y6.66667 Z4 F[#31] (point)
;G1 X0 Y6.66667 Z22 (endrun)
;G1 X0 Y7.77778 Z22 (beginrun)
G1 X0 Y7.77778 Z4 F[#31] (point)
G1 X14 Y7.77778 Z4 F[#31] (point)
;G1 X14 Y7.77778 Z22 (endrun)
;G1 X14 Y8.88889 Z22 (beginrun)
G1 X14 Y8.88889 Z4 F[#31] (point)
G1 X0 Y8.88889 Z4 F[#31] (point)
;G1 X0 Y8.88889 Z22 (endrun)
;G1 X0 Y10 Z22 (beginrun)
G1 X0 Y10 Z4 F[#31] (point)
G1 X14 Y10 Z4 F[#31] (point)
;G1 X14 Y10 Z22 (endrun)
;G1 X14 Y10 Z22 (endpath)
G0 X14 Y0 Z22 A120 (beginpath)
;G1 X14 Y0 Z22 (beginrun)
G1 X14 Y0 Z2 F[#31] (point)
G1 X0 Y0 Z2 F[#31] (point)
;G1 X0 Y0 Z22 (endrun)
;G1 X0 Y1.11111 Z22 (beginrun)
G1 X0 Y1.11111 Z2 F[#31] (point)
G1 X14 Y1.11111 Z2 F[#31] (point)
;G1 X14 Y1.11111 Z22 (endrun)
;G1 X14 Y2.22222 Z22 (beginrun)
G1 X14 Y2.22222 Z2 F[#31] (point)
G1 X0 Y2.22222 Z2 F[#31] (point)
;G1 X0 Y2.22222 Z22 (endrun)
;G1 X0 Y3.33333 Z22 (beginrun)
G1 X0 Y3.33333 Z2 F[#31] (point)
G1 X14 Y3.33333 Z2 F[#31] (point)
;G1 X14 Y3.33333 Z22 (endrun)
;G1 X14 Y4.44444 Z22 (beginrun)
G1 X14 Y4.44444 Z2 F[#31] (point)
G1 X0 Y4.44444 Z2 F[#31] (point)
;G1 X0 Y4.44444 Z22 (endrun)
;G1 X0 Y5.55556 Z22 (beginrun)
G1 X0 Y5.55556 Z2 F[#31] (point)
G1 X14 Y5.55556 Z2 F[#31] (point)
;G1 X14 Y5.55556 Z22 (endrun)
;G1 X14 Y6.66667 Z22 (beginrun)
G1 X14 Y6.66667 Z2 F[#31] (point)
G1 X0 Y6.66667 Z2 F[#31] (point)
;G1 X0 Y6.66667 Z22 (endrun)
;G1 X0 Y7.77778 Z22 (beginrun)
G1 X0 Y7.77778 Z2 F[#31] (point)
G1 X14 Y7.77778 Z2 F[#31] (point)
;G1 X14 Y7.77778 Z22 (endrun)
;G1 X14 Y8.88889 Z22 (beginrun)
G1 X14 Y8.88889 Z2 F[#31] (point)
G1 X0 Y8.88889 Z2 F[#31] (point)
;G1 X0 Y8.88889 Z22 (endrun)
;G1 X0 Y10 Z22 (beginrun)
G1 X0 Y10 Z2 F[#31] (point)
G1 X14 Y10 Z2 F[#31] (point)
;G1 X14 Y10 Z22 (endrun)
;G1 X14 Y10 Z22 (endpath)
G0 X14 Y0 Z22 A120 (beginpath)
;G1 X14 Y0 Z22 (beginrun)
G1 X14 Y0 Z0 F[#31] (point)
G1 X0 Y0 Z0 F[#31] (point)
;G1 X0 Y0 Z22 (endrun)
;G1 X0 Y1.11111 Z22 (beginrun)
G1 X0 Y1.11111 Z0 F[#31] (point)
G1 X14 Y1.11111 Z0 F[#31] (point)
;G1 X14 Y1.11111 Z22 (endrun)
;G1 X14 Y2.22222 Z22 (beginrun)
G1 X14 Y2.22222 Z0 F[#31] (point)
G1 X0 Y2.22222 Z0 F[#31] (point)
;G1 X0 Y2.22222 Z22 (endrun)
;G1 X0 Y3.33333 Z22 (beginrun)
G1 X0 Y3.33333 Z0 F[#31] (point)
G1 X14 Y3.33333 Z0 F[#31] (point)
;G1 X14 Y3.33333 Z22 (endrun)
;G1 X14 Y4.44444 Z22 (beginrun)
G1 X14 Y4.44444 Z0 F[#31] (point)
G1 X0 Y4.44444 Z0 F[#31] (point)
;G1 X0 Y4.44444 Z22 (endrun)
;G1 X0 Y5.55556 Z22 (beginrun)
G1 X0 Y5.55556 Z0 F[#31] (point)
G1 X14 Y5.55556 Z0 F[#31] (point)
;G1 X14 Y5.55556 Z22 (endrun)
;G1 X14 Y6.66667 Z22 (beginrun)
G1 X14 Y6.66667 Z0 F[#31] (point)
G1 X0 Y6.66667 Z0 F[#31] (point)
;G1 X0 Y6.66667 Z22 (endrun)
;G1 X0 Y7.77778 Z22 (beginrun)
G1 X0 Y7.77778 Z0 F[#31] (point)
G1 X14 Y7.77778 Z0 F[#31] (point)
;G1 X14 Y7.77778 Z22 (endrun)
;G1 X14 Y8.88889 Z22 (beginrun)
G1 X14 Y8.88889 Z0 F[#31] (point)
G1 X0 Y8.88889 Z0 F[#31] (point)
;G1 X0 Y8.88889 Z22 (endrun)
;G1 X0 Y10 Z22 (beginrun)
G1 X0 Y10 Z0 F[#31] (point)
G1 X14 Y10 Z0 F[#31] (point)
;G1 X14 Y10 Z22 (endrun)
;G1 X14 Y10 Z22 (endpath)
G0 X14 Y0 Z22 A140 (beginpath)
;G1 X14 Y0 Z22 (beginrun)
G1 X14 Y0 Z4 F[#31] (point)
G1 X0 Y0 Z4 F[#31] (point)
;G1 X0 Y0 Z22 (endrun)
;G1 X0 Y1.11111 Z22 (beginrun)
G1 X0 Y1.11111 Z4 F[#31] (point)
G1 X14 Y1.11111 Z4 F[#31] (point)
;G1 X14 Y1.11111 Z22 (endrun)
;G1 X14 Y2.22222 Z22 (beginrun)
G1 X14 Y2.22222 Z4 F[#31] (point)
G1 X0 Y2.22222 Z4 F[#31] (point)
;G1 X0 Y2.22222 Z22 (endrun)
;G1 X0 Y3.33333 Z22 (beginrun)
G1 X0 Y3.33333 Z4 F[#31] (point)
G1 X14 Y3.33333 Z4 F[#31] (point)
;G1 X14 Y3.33333 Z22 (endrun)
;G1 X14 Y4.44444 Z22 (beginrun)
G1 X14 Y4.44444 Z4 F[#31] (point)
G1 X0 Y4.44444 Z4 F[#31] (point)
;G1 X0 Y4.44444 Z22 (endrun)
;G1 X0 Y5.55556 Z22 (beginrun)
G1 X0 Y5.55556 Z4 F[#31] (point)
G1 X14 Y5.55556 Z4 F[#31] (point)
;G1 X14 Y5.55556 Z22 (endrun)
;G1 X14 Y6.66667 Z22 (beginrun)
G1 X14 Y6.66667 Z4 F[#31] (point)
G1 X0 Y6.66667 Z4 F[#31] (point)
;G1 X0 Y6.66667 Z22 (endrun)
;G1 X0 Y7.77778 Z22 (beginrun)
G1 X0 Y7.77778 Z4 F[#31] (point)
G1 X14 Y7.77778 Z4 F[#31] (point)
;G1 X14 Y7.77778 Z22 (endrun)
;G1 X14 Y8.88889 Z22 (beginrun)
G1 X14 Y8.88889 Z4 F[#31] (point)
G1 X0 Y8.88889 Z4 F[#31] (point)
;G1 X0 Y8.88889 Z22 (endrun)
;G1 X0 Y10 Z22 (beginrun)
G1 X0 Y10 Z4 F[#31] (point)
G1 X14 Y10 Z4 F[#31] (point)
;G1 X14 Y10 Z22 (endrun)
;G1 X14 Y10 Z22 (endpath)
G0 X14 Y0 Z22 A140 (beginpath)
;G1 X14 Y0 Z22 (beginrun)
G1 X14 Y0 Z2 F[#31] (point)
G1 X0 Y0 Z2 F[#31] (point)
;G1 X0 Y0 Z22 (endrun)
;G1 X0 Y1.11111 Z22 (beginrun)
G1 X0 Y1.11111 Z2 F[#31] (point)
G1 X14 Y1.11111 Z2 F[#31] (point)
;G1 X14 Y1.11111 Z22 (endrun)
;G1 X14 Y2.22222 Z22 (beginrun)
G1 X14 Y2.22222 Z2 F[#31] (point)
G1 X0 Y2.22222 Z2 F[#31] (point)
;G1 X0 Y2.22222 Z22 (endrun)
;G1 X0 Y3.33333 Z22 (beginrun)
G1 X0 Y3.33333 Z2 F[#31] (point)
G1 X14 Y3.33333 Z2 F[#31] (point)
;G1 X14 Y3.33333 Z22 (endrun)
;G1 X14 Y4.44444 Z22 (beginrun)
G1 X14 Y4.44444 Z2 F[#31] (point)
G1 X0 Y4.44444 Z2 F[#31] (point)
;G1 X0 Y4.44444 Z22 (endrun)
;G1 X0 Y5.55556 Z22 (beginrun)
G1 X0 Y5.55556 Z2 F[#31] (point)
G1 X14 Y5.55556 Z2 F[#31] (point)
;G1 X14 Y5.55556 Z22 (endrun)
;G1 X14 Y6.66667 Z22 (beginrun)
G1 X14 Y6.66667 Z2 F[#31] (point)
G1 X0 Y6.66667 Z2 F[#31] (point)
;G1 X0 Y6.66667 Z22 (endrun)
;G1 X0 Y7.77778 Z22 (beginrun)
G1 X0 Y7.77778 Z2 F[#31] (point)
G1 X14 Y7.77778 Z2 F[#31] (point)
;G1 X14 Y7.77778 Z22 (endrun)
;G1 X14 Y8.88889 Z22 (beginrun)
G1 X14 Y8.88889 Z2 F[#31] (point)
G1 X0 Y8.88889 Z2 F[#31] (point)
;G1 X0 Y8.88889 Z22 (endrun)
;G1 X0 Y10 Z22 (beginrun)
G1 X0 Y10 Z2 F[#31] (point)
G1 X14 Y10 Z2 F[#31] (point)
;G1 X14 Y10 Z22 (endrun)
;G1 X14 Y10 Z22 (endpath)
G0 X14 Y0 Z22 A140 (beginpath)
;G1 X14 Y0 Z22 (beginrun)
G1 X14 Y0 Z0 F[#31] (point)
G1 X0 Y0 Z0 F[#31] (point)
;G1 X0 Y0 Z22 (endrun)
;G1 X0 Y1.11111 Z22 (beginrun)
G1 X0 Y1.11111 Z0 F[#31] (point)
G1 X14 Y1.11111 Z0 F[#31] (point)
;G1 X14 Y1.11111 Z22 (endrun)
;G1 X14 Y2.22222 Z22 (beginrun)
G1 X14 Y2.22222 Z0 F[#31] (point)
G1 X0 Y2.22222 Z0 F[#31] (point)
;G1 X0 Y2.22222 Z22 (endrun)
;G1 X0 Y3.33333 Z22 (beginrun)
G1 X0 Y3.33333 Z0 F[#31] (point)
G1 X14 Y3.33333 Z0 F[#31] (point)
;G1 X14 Y3.33333 Z22 (endrun)
;G1 X14 Y4.44444 Z22 (beginrun)
G1 X14 Y4.44444 Z0 F[#31] (point)
G1 X0 Y4.44444 Z0 F[#31] (point)
;G1 X0 Y4.44444 Z22 (endrun)
;G1 X0 Y5.55556 Z22 (beginrun)
G1 X0 Y5.55556 Z0 F[#31] (point)
G1 X14 Y5.55556 Z0 F[#31] (point)
;G1 X14 Y5.55556 Z22 (endrun)
;G1 X14 Y6.66667 Z22 (beginrun)
G1 X14 Y6.66667 Z0 F[#31] (point)
G1 X0 Y6.66667 Z0 F[#31] (point)
;G1 X0 Y6.66667 Z22 (endrun)
;G1 X0 Y7.77778 Z22 (beginrun)
G1 X0 Y7.77778 Z0 F[#31] (point)
G1 X14 Y7.77778 Z0 F[#31] (point)
;G1 X14 Y7.77778 Z22 (endrun)
;G1 X14 Y8.88889 Z22 (beginrun)
G1 X14 Y8.88889 Z0 F[#31] (point)
G1 X0 Y8.88889 Z0 F[#31] (point)
;G1 X0 Y8.88889 Z22 (endrun)
;G1 X0 Y10 Z22 (beginrun)
G1 X0 Y10 Z0 F[#31] (point)
G1 X14 Y10 Z0 F[#31] (point)
;G1 X14 Y10 Z22 (endrun)
;G1 X14 Y10 Z22 (endpath)
G0 X14 Y0 Z22 A160 (beginpath)
;G1 X14 Y0 Z22 (beginrun)
G1 X14 Y0 Z4 F[#31] (point)
G1 X0 Y0 Z4 F[#31] (point)
;G1 X0 Y0 Z22 (endrun)
;G1 X0 Y1.11111 Z22 (beginrun)
G1 X0 Y1.11111 Z4 F[#31] (point)
G1 X14 Y1.11111 Z4 F[#31] (point)
;G1 X14 Y1.11111 Z22 (endrun)
;G1 X14 Y2.22222 Z22 (beginrun)
G1 X14 Y2.22222 Z4 F[#31] (point)
G1 X0 Y2.22222 Z4 F[#31] (point)
;G1 X0 Y2.22222 Z22 (endrun)
;G1 X0 Y3.33333 Z22 (beginrun)
G1 X0 Y3.33333 Z4 F[#31] (point)
G1 X14 Y3.33333 Z4 F[#31] (point)
;G1 X14 Y3.33333 Z22 (endrun)
;G1 X14 Y4.44444 Z22 (beginrun)
G1 X14 Y4.44444 Z4 F[#31] (point)
G1 X0 Y4.44444 Z4 F[#31] (point)
;G1 X0 Y4.44444 Z22 (endrun)
;G1 X0 Y5.55556 Z22 (beginrun)
G1 X0 Y5.55556 Z4 F[#31] (point)
G1 X14 Y5.55556 Z4 F[#31] (point)
;G1 X14 Y5.55556 Z22 (endrun)
;G1 X14 Y6.66667 Z22 (beginrun)
G1 X14 Y6.66667 Z4 F[#31] (point)
G1 X0 Y6.66667 Z4 F[#31] (point)
;G1 X0 Y6.66667 Z22 (endrun)
;G1 X0 Y7.77778 Z22 (beginrun)
G1 X0 Y7.77778 Z4 F[#31] (point)
G1 X14 Y7.77778 Z4 F[#31] (point)
;G1 X14 Y7.77778 Z22 (endrun)
;G1 X14 Y8.88889 Z22 (beginrun)
G1 X14 Y8.88889 Z4 F[#31] (point)
G1 X0 Y8.88889 Z4 F[#31] (point)
;G1 X0 Y8.88889 Z22 (endrun)
;G1 X0 Y10 Z22 (beginrun)
G1 X0 Y10 Z4 F[#31] (point)
G1 X14 Y10 Z4 F[#31] (point)
;G1 X14 Y10 Z22 (endrun)
;G1 X14 Y10 Z22 (endpath)
G0 X14 Y0 Z22 A160 (beginpath)
;G1 X14 Y0 Z22 (beginrun)
G1 X14 Y0 Z2 F[#31] (point)
G1 X0 Y0 Z2 F[#31] (point)
;G1 X0 Y0 Z22 (endrun)
;G1 X0 Y1.11111 Z22 (beginrun)
G1 X0 Y1.11111 Z2 F[#31] (point)
G1 X14 Y1.11111 Z2 F[#31] (point)
;G1 X14 Y1.11111 Z22 (endrun)
;G1 X14 Y2.22222 Z22 (beginrun)
G1 X14 Y2.22222 Z2 F[#31] (point)
G1 X0 Y2.22222 Z2 F[#31] (point)
;G1 X0 Y2.22222 Z22 (endrun)
;G1 X0 Y3.33333 Z22 (beginrun)
G1 X0 Y3.33333 Z2 F[#31] (point)
G1 X14 Y3.33333 Z2 F[#31] (point)
;G1 X14 Y3.33333 Z22 (endrun)
;G1 X14 Y4.44444 Z22 (beginrun)
G1 X14 Y4.44444 Z2 F[#31] (point)
G1 X0 Y4.44444 Z2 F[#31] (point)
;G1 X0 Y4.44444 Z22 (endrun)
;G1 X0 Y5.55556 Z22 (beginrun)
G1 X0 Y5.55556 Z2 F[#31] (point)
G1 X14 Y5.55556 Z2 F[#31] (point)
;G1 X14 Y5.55556 Z22 (endrun)
;G1 X14 Y6.66667 Z22 (beginrun)
G1 X14 Y6.66667 Z2 F[#31] (point)
G1 X0 Y6.66667 Z2 F[#31] (point)
;G1 X0 Y6.66667 Z22 (endrun)
;G1 X0 Y7.77778 Z22 (beginrun)
G1 X0 Y7.77778 Z2 F[#31] (point)
G1 X14 Y7.77778 Z2 F[#31] (point)
;G1 X14 Y7.77778 Z22 (endrun)
;G1 X14 Y8.88889 Z22 (beginrun)
G1 X14 Y8.88889 Z2 F[#31] (point)
G1 X0 Y8.88889 Z2 F[#31] (point)
;G1 X0 Y8.88889 Z22 (endrun)
;G1 X0 Y10 Z22 (beginrun)
G1 X0 Y10 Z2 F[#31] (point)
G1 X14 Y10 Z2 F[#31] (point)
;G1 X14 Y10 Z22 (endrun)
;G1 X14 Y10 Z22 (endpath)
G0 X14 Y0 Z22 A160 (beginpath)
;G1 X14 Y0 Z22 (beginrun)
G1 X14 Y0 Z0 F[#31] (point)
G1 X0 Y0 Z0 F[#31] (point)
;G1 X0 Y0 Z22 (endrun)
;G1 X0 Y1.11111 Z22 (beginrun)
G1 X0 Y1.11111 Z0 F[#31] (point)
G1 X14 Y1.11111 Z0 F[#31] (point)
;G1 X14 Y1.11111 Z22 (endrun)
;G1 X14 Y2.22222 Z22 (beginrun)
G1 X14 Y2.22222 Z0 F[#31] (point)
G1 X0 Y2.22222 Z0 F[#31] (point)
;G1 X0 Y2.22222 Z22 (endrun)
;G1 X0 Y3.33333 Z22 (beginrun)
G1 X0 Y3.33333 Z0 F[#31] (point)
G1 X14 Y3.33333 Z0 F[#31] (point)
;G1 X14 Y3.33333 Z22 (endrun)
;G1 X14 Y4.44444 Z22 (beginrun)
G1 X14 Y4.44444 Z0 F[#31] (point)
G1 X0 Y4.44444 Z0 F[#31] (point)
;G1 X0 Y4.44444 Z22 (endrun)
;G1 X0 Y5.55556 Z22 (beginrun)
G1 X0 Y5.55556 Z0 F[#31] (point)
G1 X14 Y5.55556 Z0 F[#31] (point)
;G1 X14 Y5.55556 Z22 (endrun)
;G1 X14 Y6.66667 Z22 (beginrun)
G1 X14 Y6.66667 Z0 F[#31] (point)
G1 X0 Y6.66667 Z0 F[#31] (point)
;G1 X0 Y6.66667 Z22 (endrun)
;G1 X0 Y7.77778 Z22 (beginrun)
G1 X0 Y7.77778 Z0 F[#31] (point)
G1 X14 Y7.77778 Z0 F[#31] (point)
;G1 X14 Y7.77778 Z22 (endrun)
;G1 X14 Y8.88889 Z22 (beginrun)
G1 X14 Y8.88889 Z0 F[#31] (point)
G1 X0 Y8.88889 Z0 F[#31] (point)
;G1 X0 Y8.88889 Z22 (endrun)
;G1 X0 Y10 Z22 (beginrun)
G1 X0 Y10 Z0 F[#31] (point)
G1 X14 Y10 Z0 F[#31] (point)
;G1 X14 Y10 Z22 (endrun)
;G1 X14 Y10 Z22 (endpath)
G0 X14 Y0 Z22 A180 (beginpath)
;G1 X14 Y0 Z22 (beginrun)
G1 X14 Y0 Z4 F[#31] (point)
G1 X0 Y0 Z4 F[#31] (point)
;G1 X0 Y0 Z22 (endrun)
;G1 X0 Y1.11111 Z22 (beginrun)
G1 X0 Y1.11111 Z4 F[#31] (point)
G1 X14 Y1.11111 Z4 F[#31] (point)
;G1 X14 Y1.11111 Z22 (endrun)
;G1 X14 Y2.22222 Z22 (beginrun)
G1 X14 Y2.22222 Z4 F[#31] (point)
G1 X0 Y2.22222 Z4 F[#31] (point)
;G1 X0 Y2.22222 Z22 (endrun)
;G1 X0 Y3.33333 Z22 (beginrun)
G1 X0 Y3.33333 Z4 F[#31] (point)
G1 X14 Y3.33333 Z4 F[#31] (point)
;G1 X14 Y3.33333 Z22 (endrun)
;G1 X14 Y4.44444 Z22 (beginrun)
G1 X14 Y4.44444 Z4 F[#31] (point)
G1 X0 Y4.44444 Z4 F[#31] (point)
;G1 X0 Y4.44444 Z22 (endrun)
;G1 X0 Y5.55556 Z22 (beginrun)
G1 X0 Y5.55556 Z4 F[#31] (point)
G1 X14 Y5.55556 Z4 F[#31] (point)
;G1 X14 Y5.55556 Z22 (endrun)
;G1 X14 Y6.66667 Z22 (beginrun)
G1 X14 Y6.66667 Z4 F[#31] (point)
G1 X0 Y6.66667 Z4 F[#31] (point)
;G1 X0 Y6.66667 Z22 (endrun)
;G1 X0 Y7.77778 Z22 (beginrun)
G1 X0 Y7.77778 Z4 F[#31] (point)
G1 X14 Y7.77778 Z4 F[#31] (point)
;G1 X14 Y7.77778 Z22 (endrun)
;G1 X14 Y8.88889 Z22 (beginrun)
G1 X14 Y8.88889 Z4 F[#31] (point)
G1 X0 Y8.88889 Z4 F[#31] (point)
;G1 X0 Y8.88889 Z22 (endrun)
;G1 X0 Y10 Z22 (beginrun)
G1 X0 Y10 Z4 F[#31] (point)
G1 X14 Y10 Z4 F[#31] (point)
;G1 X14 Y10 Z22 (endrun)
;G1 X14 Y10 Z22 (endpath)
G0 X14 Y0 Z22 A180 (beginpath)
;G1 X14 Y0 Z22 (beginrun)
G1 X14 Y0 Z2 F[#31] (point)
G1 X0 Y0 Z2 F[#31] (point)
;G1 X0 Y0 Z22 (endrun)
;G1 X0 Y1.11111 Z22 (beginrun)
G1 X0 Y1.11111 Z2 F[#31] (point)
G1 X14 Y1.11111 Z2 F[#31] (point)
;G1 X14 Y1.11111 Z22 (endrun)
;G1 X14 Y2.22222 Z22 (beginrun)
G1 X14 Y2.22222 Z2 F[#31] (point)
G1 X0 Y2.22222 Z2 F[#31] (point)
;G1 X0 Y2.22222 Z22 (endrun)
;G1 X0 Y3.33333 Z22 (beginrun)
G1 X0 Y3.33333 Z2 F[#31] (point)
G1 X14 Y3.33333 Z2 F[#31] (point)
;G1 X14 Y3.33333 Z22 (endrun)
;G1 X14 Y4.44444 Z22 (beginrun)
G1 X14 Y4.44444 Z2 F[#31] (point)
G1 X0 Y4.44444 Z2 F[#31] (point)
;G1 X0 Y4.44444 Z22 (endrun)
;G1 X0 Y5.55556 Z22 (beginrun)
G1 X0 Y5.55556 Z2 F[#31] (point)
G1 X14 Y5.55556 Z2 F[#31] (point)
;G1 X14 Y5.55556 Z22 (endrun)
;G1 X14 Y6.66667 Z22 (beginrun)
G1 X14 Y6.66667 Z2 F[#31] (point)
G1 X0 Y6.66667 Z2 F[#31] (point)
;G1 X0 Y6.66667 Z22 (endrun)
;G1 X0 Y7.77778 Z22 (beginrun)
G1 X0 Y7.77778 Z2 F[#31] (point)
G1 X14 Y7.77778 Z2 F[#31] (point)
;G1 X14 Y7.77778 Z22 (endrun)
;G1 X14 Y8.88889 Z22 (beginrun)
G1 X14 Y8.88889 Z2 F[#31] (point)
G1 X0 Y8.88889 Z2 F[#31] (point)
;G1 X0 Y8.88889 Z22 (endrun)
;G1 X0 Y10 Z22 (beginrun)
G1 X0 Y10 Z2 F[#31] (point)
G1 X14 Y10 Z2 F[#31] (point)
;G1 X14 Y10 Z22 (endrun)
;G1 X14 Y10 Z22 (endpath)
G0 X14 Y0 Z22 A180 (beginpath)
;G1 X14 Y0 Z22 (beginrun)
G1 X14 Y0 Z0 F[#31] (point)
G1 X0 Y0 Z0 F[#31] (point)
;G1 X0 Y0 Z22 (endrun)
;G1 X0 Y1.11111 Z22 (beginrun)
G1 X0 Y1.11111 Z0 F[#31] (point)
G1 X14 Y1.11111 Z0 F[#31] (point)
;G1 X14 Y1.11111 Z22 (endrun)
;G1 X14 Y2.22222 Z22 (beginrun)
G1 X14 Y2.22222 Z0 F[#31] (point)
G1 X0 Y2.22222 Z0 F[#31] (point)
;G1 X0 Y2.22222 Z22 (endrun)
;G1 X0 Y3.33333 Z22 (beginrun)
G1 X0 Y3.33333 Z0 F[#31] (point)
G1 X14 Y3.33333 Z0 F[#31] (point)
;G1 X14 Y3.33333 Z22 (endrun)
;G1 X14 Y4.44444 Z22 (beginrun)
G1 X14 Y4.44444 Z0 F[#31] (point)
G1 X0 Y4.44444 Z0 F[#31] (point)
;G1 X0 Y4.44444 Z22 (endrun)
;G1 X0 Y5.55556 Z22 (beginrun)
G1 X0 Y5.55556 Z0 F[#31] (point)
G1 X14 Y5.55556 Z0 F[#31] (point)
;G1 X14 Y5.55556 Z22 (endrun)
;G1 X14 Y6.66667 Z22 (beginrun)
G1 X14 Y6.66667 Z0 F[#31] (point)
G1 X0 Y6.66667 Z0 F[#31] (point)
;G1 X0 Y6.66667 Z22 (endrun)
;G1 X0 Y7.77778 Z22 (beginrun)
G1 X0 Y7.77778 Z0 F[#31] (point)
G1 X14 Y7.77778 Z0 F[#31] (point)
;G1 X14 Y7.77778 Z22 (endrun)
;G1 X14 Y8.88889 Z22 (beginrun)
G1 X14 Y8.88889 Z0 F[#31] (point)
G1 X0 Y8.88889 Z0 F[#31] (point)
;G1 X0 Y8.88889 Z22 (endrun)
;G1 X0 Y10 Z22 (beginrun)
G1 X0 Y10 Z0 F[#31] (point)
G1 X14 Y10 Z0 F[#31] (point)
;G1 X14 Y10 Z22 (endrun)
;G1 X14 Y10 Z22 (endpath)
G0 X14 Y0 Z22 A200 (beginpath)
;G1 X14 Y0 Z22 (beginrun)
G1 X14 Y0 Z4 F[#31] (point)
G1 X0 Y0 Z4 F[#31] (point)
;G1 X0 Y0 Z22 (endrun)
;G1 X0 Y1.11111 Z22 (beginrun)
G1 X0 Y1.11111 Z4 F[#31] (point)
G1 X14 Y1.11111 Z4 F[#31] (point)
;G1 X14 Y1.11111 Z22 (endrun)
;G1 X14 Y2.22222 Z22 (beginrun)
G1 X14 Y2.22222 Z4 F[#31] (point)
G1 X0 Y2.22222 Z4 F[#31] (point)
;G1 X0 Y2.22222 Z22 (endrun)
;G1 X0 Y3.33333 Z22 (beginrun)
G1 X0 Y3.33333 Z4 F[#31] (point)
G1 X14 Y3.33333 Z4 F[#31] (point)
;G1 X14 Y3.33333 Z22 (endrun)
;G1 X14 Y4.44444 Z22 (beginrun)
G1 X14 Y4.44444 Z4 F[#31] (point)
G1 X0 Y4.44444 Z4 F[#31] (point)
;G1 X0 Y4.44444 Z22 (endrun)
;G1 X0 Y5.55556 Z22 (beginrun)
G1 X0 Y5.55556 Z4 F[#31] (point)
G1 X14 Y5.55556 Z4 F[#31] (point)
;G1 X14 Y5.55556 Z22 (endrun)
;G1 X14 Y6.66667 Z22 (beginrun)
G1 X14 Y6.66667 Z4 F[#31] (point)
G1 X0 Y6.66667 Z4 F[#31] (point)
;G1 X0 Y6.66667 Z22 (endrun)
;G1 X0 Y7.77778 Z22 (beginrun)
G1 X0 Y7.77778 Z4 F[#31] (point)
G1 X14 Y7.77778 Z4 F[#31] (point)
;G1 X14 Y7.77778 Z22 (endrun)
;G1 X14 Y8.88889 Z22 (beginrun)
G1 X14 Y8.88889 Z4 F[#31] (point)
G1 X0 Y8.88889 Z4 F[#31] (point)
;G1 X0 Y8.88889 Z22 (endrun)
;G1 X0 Y10 Z22 (beginrun)
G1 X0 Y10 Z4 F[#31] (point)
G1 X14 Y10 Z4 F[#31] (point)
;G1 X14 Y10 Z22 (endrun)
;G1 X14 Y10 Z22 (endpath)
G0 X14 Y0 Z22 A200 (beginpath)
;G1 X14 Y0 Z22 (beginrun)
G1 X14 Y0 Z2 F[#31] (point)
G1 X0 Y0 Z2 F[#31] (point)
;G1 X0 Y0 Z22 (endrun)
;G1 X0 Y1.11111 Z22 (beginrun)
G1 X0 Y1.11111 Z2 F[#31] (point)
G1 X14 Y1.11111 Z2 F[#31] (point)
;G1 X14 Y1.11111 Z22 (endrun)
;G1 X14 Y2.22222 Z22 (beginrun)
G1 X14 Y2.22222 Z2 F[#31] (point)
G1 X0 Y2.22222 Z2 F[#31] (point)
;G1 X0 Y2.22222 Z22 (endrun)
;G1 X0 Y3.33333 Z22 (beginrun)
G1 X0 Y3.33333 Z2 F[#31] (point)
G1 X14 Y3.33333 Z2 F[#31] (point)
;G1 X14 Y3.33333 Z22 (endrun)
;G1 X14 Y4.44444 Z22 (beginrun)
G1 X14 Y4.44444 Z2 F[#31] (point)
G1 X0 Y4.44444 Z2 F[#31] (point)
;G1 X0 Y4.44444 Z22 (endrun)
;G1 X0 Y5.55556 Z22 (beginrun)
G1 X0 Y5.55556 Z2 F[#31] (point)
G1 X14 Y5.55556 Z2 F[#31] (point)
;G1 X14 Y5.55556 Z22 (endrun)
;G1 X14 Y6.66667 Z22 (beginrun)
G1 X14 Y6.66667 Z2 F[#31] (point)
G1 X0 Y6.66667 Z2 F[#31] (point)
;G1 X0 Y6.66667 Z22 (endrun)
;G1 X0 Y7.77778 Z22 (beginrun)
G1 X0 Y7.77778 Z2 F[#31] (point)
G1 X14 Y7.77778 Z2 F[#31] (point)
;G1 X14 Y7.77778 Z22 (endrun)
;G1 X14 Y8.88889 Z22 (beginrun)
G1 X14 Y8.88889 Z2 F[#31] (point)
G1 X0 Y8.88889 Z2 F[#31] (point)
;G1 X0 Y8.88889 Z22 (endrun)
;G1 X0 Y10 Z22 (beginrun)
G1 X0 Y10 Z2 F[#31] (point)
G1 X14 Y10 Z2 F[#31] (point)
;G1 X14 Y10 Z22 (endrun)
;G1 X14 Y10 Z22 (endpath)
G0 X14 Y0 Z22 A200 (beginpath)
;G1 X14 Y0 Z22 (beginrun)
G1 X14 Y0 Z0 F[#31] (point)
G1 X0 Y0 Z0 F[#31] (point)
;G1 X0 Y0 Z22 (endrun)
;G1 X0 Y1.11111 Z22 (beginrun)
G1 X0 Y1.11111 Z0 F[#31] (point)
G1 X14 Y1.11111 Z0 F[#31] (point)
;G1 X14 Y1.11111 Z22 (endrun)
;G1 X14 Y2.22222 Z22 (beginrun)
G1 X14 Y2.22222 Z0 F[#31] (point)
G1 X0 Y2.22222 Z0 F[#31] (point)
;G1 X0 Y2.22222 Z22 (endrun)
;G1 X0 Y3.33333 Z22 (beginrun)
G1 X0 Y3.33333 Z0.230551 F[#31] (point)
G1 X1.83838 Y3.33333 Z0.230551 F[#31] (point)
G1 X1.9798 Y3.33333 Z0.2433 F[#31] (point)
G1 X2.12121 Y3.33333 Z0.2506 F[#31] (point)
G1 X2.26263 Y3.33333 Z0.248484 F[#31] (point)
G1 X2.40404 Y3.33333 Z0.237331 F[#31] (point)
G1 X2.54545 Y3.33333 Z0.217356 F[#31] (point)
G1 X2.68687 Y3.33333 Z0.188629 F[#31] (point)
G1 X2.82828 Y3.33333 Z0.151078 F[#31] (point)
G1 X2.9697 Y3.33333 Z0.104486 F[#31] (point)
G1 X3.11111 Y3.33333 Z0.0484722 F[#31] (point)
G1 X3.25253 Y3.33333 Z0 F[#31] (point)
G1 X14 Y3.33333 Z0 F[#31] (point)
;G1 X14 Y3.33333 Z22 (endrun)
;G1 X14 Y4.44444 Z22 (beginrun)
G1 X14 Y4.44444 Z0 F[#31] (point)
G1 X3.11111 Y4.44444 Z0 F[#31] (point)
G1 X2.9697 Y4.44444 Z0.0499135 F[#31] (point)
G1 X2.82828 Y4.44444 Z0.15085 F[#31] (point)
G1 X2.68687 Y4.44444 Z0.230228 F[#31] (point)
G1 X2.54545 Y4.44444 Z0.291589 F[#31] (point)
G1 X2.40404 Y4.44444 Z0.337152 F[#31] (point)
G1 X2.26263 Y4.44444 Z0.368331 F[#31] (point)
G1 X2.12121 Y4.44444 Z0.385997 F[#31] (point)
G1 X1.9798 Y4.44444 Z0.390744 F[#31] (point)
G1 X0 Y4.44444 Z0.390744 F[#31] (point)
;G1 X0 Y4.44444 Z22 (endrun)
;G1 X0 Y5.55556 Z22 (beginrun)
G1 X0 Y5.55556 Z0 F[#31] (point)
G1 X14 Y5.55556 Z0 F[#31] (point)
;G1 X14 Y5.55556 Z22 (endrun)
;G1 X14 Y6.66667 Z22 (beginrun)
G1 X14 Y6.66667 Z0 F[#31] (point)
G1 X0 Y6.66667 Z0 F[#31] (point)
;G1 X0 Y6.66667 Z22 (endrun)
;G1 X0 Y7.77778 Z22 (beginrun)
G1 X0 Y7.77778 Z0 F[#31] (point)
G1 X14 Y7.77778 Z0 F[#31] (point)
;G1 X14 Y7.77778 Z22 (endrun)
;G1 X14 Y8.88889 Z22 (beginrun)
G1 X14 Y8.88889 Z0 F[#31] (point)
G1 X0 Y8.88889 Z0 F[#31] (point)
;G1 X0 Y8.88889 Z22 (endrun)
;G1 X0 Y10 Z22 (beginrun)
G1 X0 Y10 Z0 F[#31] (point)
G1 X14 Y10 Z0 F[#31] (point)
;G1 X14 Y10 Z22 (endrun)
;G1 X14 Y10 Z22 (endpath)
G0 X14 Y0 Z22 A220 (beginpath)
;G1 X14 Y0 Z22 (beginrun)
G1 X14 Y0 Z4 F[#31] (point)
G1 X0 Y0 Z4 F[#31] (point)
;G1 X0 Y0 Z22 (endrun)
;G1 X0 Y1.11111 Z22 (beginrun)
G1 X0 Y1.11111 Z4 F[#31] (point)
G1 X14 Y1.11111 Z4 F[#31] (point)
;G1 X14 Y1.11111 Z22 (endrun)
;G1 X14 Y2.22222 Z22 (beginrun)
G1 X14 Y2.22222 Z4 F[#31] (point)
G1 X0 Y2.22222 Z4 F[#31] (point)
;G1 X0 Y2.22222 Z22 (endrun)
;G1 X0 Y3.33333 Z22 (beginrun)
G1 X0 Y3.33333 Z4 F[#31] (point)
G1 X14 Y3.33333 Z4 F[#31] (point)
;G1 X14 Y3.33333 Z22 (endrun)
;G1 X14 Y4.44444 Z22 (beginrun)
G1 X14 Y4.44444 Z4 F[#31] (point)
G1 X0 Y4.44444 Z4 F[#31] (point)
;G1 X0 Y4.44444 Z22 (endrun)
;G1 X0 Y5.55556 Z22 (beginrun)
G1 X0 Y5.55556 Z4 F[#31] (point)
G1 X14 Y5.55556 Z4 F[#31] (point)
;G1 X14 Y5.55556 Z22 (endrun)
;G1 X14 Y6.66667 Z22 (beginrun)
G1 X14 Y6.66667 Z4 F[#31] (point)
G1 X0 Y6.66667 Z4 F[#31] (point)
;G1 X0 Y6.66667 Z22 (endrun)
;G1 X0 Y7.77778 Z22 (beginrun)
G1 X0 Y7.77778 Z4 F[#31] (point)
G1 X14 Y7.77778 Z4 F[#31] (point)
;G1 X14 Y7.77778 Z22 (endrun)
;G1 X14 Y8.88889 Z22 (beginrun)
G1 X14 Y8.88889 Z4 F[#31] (point)
G1 X0 Y8.88889 Z4 F[#31] (point)
;G1 X0 Y8.88889 Z22 (endrun)
;G1 X0 Y10 Z22 (beginrun)
G1 X0 Y10 Z4 F[#31] (point)
G1 X14 Y10 Z4 F[#31] (point)
;G1 X14 Y10 Z22 (endrun)
;G1 X14 Y10 Z22 (endpath)
G0 X14 Y0 Z22 A220 (beginpath)
;G1 X14 Y0 Z22 (beginrun)
G1 X14 Y0 Z2 F[#31] (point)
G1 X0 Y0 Z2 F[#31] (point)
;G1 X0 Y0 Z22 (endrun)
;G1 X0 Y1.11111 Z22 (beginrun)
G1 X0 Y1.11111 Z2 F[#31] (point)
G1 X14 Y1.11111 Z2 F[#31] (point)
;G1 X14 Y1.11111 Z22 (endrun)
;G1 X14 Y2.22222 Z22 (beginrun)
G1 X14 Y2.22222 Z2 F[#31] (point)
G1 X0 Y2.22222 Z2 F[#31] (point)
;G1 X0 Y2.22222 Z22 (endrun)
;G1 X0 Y3.33333 Z22 (beginrun)
G1 X0 Y3.33333 Z2 F[#31] (point)
G1 X14 Y3.33333 Z2 F[#31] (point)
;G1 X14 Y3.33333 Z22 (endrun)
;G1 X14 Y4.44444 Z22 (beginrun)
G1 X14 Y4.44444 Z2 F[#31] (point)
G1 X0 Y4.44444 Z2 F[#31] (point)
;G1 X0 Y4.44444 Z22 (endrun)
;G1 X0 Y5.55556 Z22 (beginrun)
G1 X0 Y5.55556 Z2 F[#31] (point)
G1 X14 Y5.55556 Z2 F[#31] (point)
;G1 X14 Y5.55556 Z22 (endrun)
;G1 X14 Y6.66667 Z22 (beginrun)
G1 X14 Y6.66667 Z2 F[#31] (point)
G1 X0 Y6.66667 Z2 F[#31] (point)
;G1 X0 Y6.66667 Z22 (endrun)
;G1 X0 Y7.77778 Z22 (beginrun)
G1 X0 Y7.77778 Z2 F[#31] (point)
G1 X14 Y7.77778 Z2 F[#31] (point)
;G1 X14 Y7.77778 Z22 (endrun)
;G1 X14 Y8.88889 Z22 (beginrun)
G1 X14 Y8.88889 Z2 F[#31] (point)
G1 X0 Y8.88889 Z2 F[#31] (point)
;G1 X0 Y8.88889 Z22 (endrun)
;G1 X0 Y10 Z22 (beginrun)
G1 X0 Y10 Z2 F[#31] (point)
G1 X14 Y10 Z2 F[#31] (point)
;G1 X14 Y10 Z22 (endrun)
;G1 X14 Y10 Z22 (endpath)
G0 X14 Y0 Z22 A220 (beginpath)
;G1 X14 Y0 Z22 (beginrun)
G1 X14 Y0 Z0 F[#31] (point)
G1 X0 Y0 Z0 F[#31] (point)
;G1 X0 Y0 Z22 (endrun)
;G1 X0 Y1.11111 Z22 (beginrun)
G1 X0 Y1.11111 Z0 F[#31] (point)
G1 X2.68687 Y1.11111 Z0 F[#31] (point)
G1 X2.82828 Y1.11111 Z0.0117193 F[#31] (point)
G1 X2.9697 Y1.11111 Z0.0600602 F[#31] (point)
G1 X3.11111 Y1.11111 Z0.0910893 F[#31] (point)
G1 X3.25253 Y1.11111 Z0.107635 F[#31] (point)
G1 X3.39394 Y1.11111 Z0.11161 F[#31] (point)
G1 X3.53535 Y1.11111 Z0.104355 F[#31] (point)
G1 X3.67677 Y1.11111 Z0.0868316 F[#31] (point)
G1 X3.81818 Y1.11111 Z0.0597313 F[#31] (point)
G1 X3.9596 Y1.11111 Z0.0235435 F[#31] (point)
G1 X4.10101 Y1.11111 Z0 F[#31] (point)
G1 X14 Y1.11111 Z0 F[#31] (point)
;G1 X14 Y1.11111 Z22 (endrun)
;G1 X14 Y2.22222 Z22 (beginrun)
G1 X14 Y2.22222 Z0 F[#31] (point)
G1 X4.52525 Y2.22222 Z0 F[#31] (point)
G1 X4.38384 Y2.22222 Z0.12434 F[#31] (point)
G1 X4.24242 Y2.22222 Z0.253215 F[#31] (point)
G1 X4.10101 Y2.22222 Z0.370109 F[#31] (point)
G1 X3.9596 Y2.22222 Z0.476193 F[#31] (point)
G1 X3.81818 Y2.22222 Z0.572312 F[#31] (point)
G1 X3.67677 Y2.22222 Z0.659071 F[#31] (point)
G1 X3.53535 Y2.22222 Z0.73689 F[#31] (point)
G1 X3.39394 Y2.22222 Z0.806042 F[#31] (point)
G1 X3.25253 Y2.22222 Z0.866671 F[#31] (point)
G1 X3.11111 Y2.22222 Z0.918803 F[#31] (point)
G1 X2.9697 Y2.22222 Z0.962346 F[#31] (point)
G1 X2.82828 Y2.22222 Z0.997087 F[#31] (point)
G1 X2.68687 Y2.22222 Z1.02267 F[#31] (point)
G1 X2.54545 Y2.22222 Z1.03858 F[#31] (point)
G1 X2.40404 Y2.22222 Z1.04409 F[#31] (point)
G1 X2.26263 Y2.22222 Z1.03818 F[#31] (point)
G1 X2.12121 Y2.22222 Z1.01944 F[#31] (point)
G1 X1.9798 Y2.22222 Z0.985823 F[#31] (point)
G1 X1.83838 Y2.22222 Z0.934314 F[#31] (point)
G1 X1.69697 Y2.22222 Z0.860087 F[#31] (point)
G1 X1.55556 Y2.22222 Z0.779471 F[#31] (point)
G1 X0 Y2.22222 Z0.779471 F[#31] (point)
;G1 X0 Y2.22222 Z22 (endrun)
;G1 X0 Y3.33333 Z22 (beginrun)
G1 X0 Y3.33333 Z1.76051 F[#31] (point)
G1 X1.9798 Y3.33333 Z1.76051 F[#31] (point)
G1 X2.12121 Y3.33333 Z1.75574 F[#31] (point)
G1 X2.26263 Y3.33333 Z1.73799 F[#31] (point)
G1 X2.40404 Y3.33333 Z1.70667 F[#31] (point)
G1 X2.54545 Y3.33333 Z1.66088 F[#31] (point)
G1 X2.68687 Y3.33333 Z1.59919 F[#31] (point)
G1 X2.82828 Y3.33333 Z1.51934 F[#31] (point)
G1 X2.9697 Y3.33333 Z1.42477 F[#31] (point)
G1 X3.11111 Y3.33333 Z1.32035 F[#31] (point)
G1 X3.25253 Y3.33333 Z1.20528 F[#31] (point)
G1 X3.39394 Y3.33333 Z1.07845 F[#31] (point)
G1 X3.53535 Y3.33333 Z0.938283 F[#31] (point)
G1 X3.67677 Y3.33333 Z0.782537 F[#31] (point)
G1 X3.81818 Y3.33333 Z0.607786 F[#31] (point)
G1 X3.9596 Y3.33333 Z0.408455 F[#31] (point)
G1 X4.10101 Y3.33333 Z0.174316 F[#31] (point)
G1 X4.24242 Y3.33333 Z0 F[#31] (point)
G1 X14 Y3.33333 Z0 F[#31] (point)
;G1 X14 Y3.33333 Z22 (endrun)
;G1 X14 Y4.44444 Z22 (beginrun)
G1 X14 Y4.44444 Z0 F[#31] (point)
G1 X3.53535 Y4.44444 Z0 F[#31] (point)
G1 X3.39394 Y4.44444 Z0.466763 F[#31] (point)
G1 X3.25253 Y4.44444 Z0.855931 F[#31] (point)
G1 X3.11111 Y4.44444 Z1.07883 F[#31] (point)
G1 X2.9697 Y4.44444 Z1.23543 F[#31] (point)
G1 X2.82828 Y4.44444 Z1.35349 F[#31] (point)
G1 X2.68687 Y4.44444 Z1.44418 F[#31] (point)
G1 X2.54545 Y4.44444 Z1.51327 F[#31] (point)
G1 X2.40404 Y4.44444 Z1.56409 F[#31] (point)
G1 X2.26263 Y4.44444 Z1.59866 F[#31] (point)
G1 X2.12121 Y4.44444 Z1.61817 F[#31] (point)
G1 X1.9798 Y4.44444 Z1.62341 F[#31] (point)
G1 X0 Y4.44444 Z1.62341 F[#31] (point)
;G1 X0 Y4.44444 Z22 (endrun)
;G1 X0 Y5.55556 Z22 (beginrun)
G1 X0 Y5.55556 Z0 F[#31] (point)
G1 X14 Y5.55556 Z0 F[#31] (point)
;G1 X14 Y5.55556 Z22 (endrun)
;G1 X14 Y6.66667 Z22 (beginrun)
G1 X14 Y6.66667 Z0 F[#31] (point)
G1 X0 Y6.66667 Z0 F[#31] (point)
;G1 X0 Y6.66667 Z22 (endrun)
;G1 X0 Y7.77778 Z22 (beginrun)
G1 X0 Y7.77778 Z0 F[#31] (point)
G1 X14 Y7.77778 Z0 F[#31] (point)
;G1 X14 Y7.77778 Z22 (endrun)
;G1 X14 Y8.88889 Z22 (beginrun)
G1 X14 Y8.88889 Z0 F[#31] (point)
G1 X0 Y8.88889 Z0 F[#31] (point)
;G1 X0 Y8.88889 Z22 (endrun)
;G1 X0 Y10 Z22 (beginrun)
G1 X0 Y10 Z0 F[#31] (point)
G1 X14 Y10 Z0 F[#31] (point)
;G1 X14 Y10 Z22 (endrun)
;G1 X14 Y10 Z22 (endpath)
G0 X14 Y0 Z22 A240 (beginpath)
;G1 X14 Y0 Z22 (beginrun)
G1 X14 Y0 Z4 F[#31] (point)
G1 X0 Y0 Z4 F[#31] (point)
;G1 X0 Y0 Z22 (endrun)
;G1 X0 Y1.11111 Z22 (beginrun)
G1 X0 Y1.11111 Z4 F[#31] (point)
G1 X14 Y1.11111 Z4 F[#31] (point)
;G1 X14 Y1.11111 Z22 (endrun)
;G1 X14 Y2.22222 Z22 (beginrun)
G1 X14 Y2.22222 Z4 F[#31] (point)
G1 X0 Y2.22222 Z4 F[#31] (point)
;G1 X0 Y2.22222 Z22 (endrun)
;G1 X0 Y3.33333 Z22 (beginrun)
G1 X0 Y3.33333 Z4 F[#31] (point)
G1 X14 Y3.33333 Z4 F[#31] (point)
;G1 X14 Y3.33333 Z22 (endrun)
;G1 X14 Y4.44444 Z22 (beginrun)
G1 X14 Y4.44444 Z4 F[#31] (point)
G1 X0 Y4.44444 Z4 F[#31] (point)
;G1 X0 Y4.44444 Z22 (endrun)
;G1 X0 Y5.55556 Z22 (beginrun)
G1 X0 Y5.55556 Z4 F[#31] (point)
G1 X14 Y5.55556 Z4 F[#31] (point)
;G1 X14 Y5.55556 Z22 (endrun)
;G1 X14 Y6.66667 Z22 (beginrun)
G1 X14 Y6.66667 Z4 F[#31] (point)
G1 X0 Y6.66667 Z4 F[#31] (point)
;G1 X0 Y6.66667 Z22 (endrun)
;G1 X0 Y7.77778 Z22 (beginrun)
G1 X0 Y7.77778 Z4 F[#31] (point)
G1 X14 Y7.77778 Z4 F[#31] (point)
;G1 X14 Y7.77778 Z22 (endrun)
;G1 X14 Y8.88889 Z22 (beginrun)
G1 X14 Y8.88889 Z4 F[#31] (point)
G1 X0 Y8.88889 Z4 F[#31] (point)
;G1 X0 Y8.88889 Z22 (endrun)
;G1 X0 Y10 Z22 (beginrun)
G1 X0 Y10 Z4 F[#31] (point)
G1 X14 Y10 Z4 F[#31] (point)
;G1 X14 Y10 Z22 (endrun)
;G1 X14 Y10 Z22 (endpath)
G0 X14 Y0 Z22 A240 (beginpath)
;G1 X14 Y0 Z22 (beginrun)
G1 X14 Y0 Z2 F[#31] (point)
G1 X0 Y0 Z2 F[#31] (point)
;G1 X0 Y0 Z22 (endrun)
;G1 X0 Y1.11111 Z22 (beginrun)
G1 X0 Y1.11111 Z2 F[#31] (point)
G1 X14 Y1.11111 Z2 F[#31] (point)
;G1 X14 Y1.11111 Z22 (endrun)
;G1 X14 Y2.22222 Z22 (beginrun)
G1 X14 Y2.22222 Z2 F[#31] (point)
G1 X3.53535 Y2.22222 Z2 F[#31] (point)
G1 X3.39394 Y2.22222 Z2.0584 F[#31] (point)
G1 X3.25253 Y2.22222 Z2.19782 F[#31] (point)
G1 X3.11111 Y2.22222 Z2.33046 F[#31] (point)
G1 X2.9697 Y2.22222 Z2.45647 F[#31] (point)
G1 X2.82828 Y2.22222 Z2.56808 F[#31] (point)
G1 X2.68687 Y2.22222 Z2.65483 F[#31] (point)
G1 X2.54545 Y2.22222 Z2.72128 F[#31] (point)
G1 X2.40404 Y2.22222 Z2.77031 F[#31] (point)
G1 X2.26263 Y2.22222 Z2.80373 F[#31] (point)
G1 X2.12121 Y2.22222 Z2.82262 F[#31] (point)
G1 X1.9798 Y2.22222 Z2.82769 F[#31] (point)
G1 X0 Y2.22222 Z2.82769 F[#31] (point)
;G1 X0 Y2.22222 Z22 (endrun)
;G1 X0 Y3.33333 Z22 (beginrun)
G1 X0 Y3.33333 Z2.89376 F[#31] (point)
G1 X1.9798 Y3.33333 Z2.89376 F[#31] (point)
G1 X2.12121 Y3.33333 Z2.88891 F[#31] (point)
G1 X2.26263 Y3.33333 Z2.87086 F[#31] (point)
G1 X2.40404 Y3.33333 Z2.83897 F[#31] (point)
G1 X2.54545 Y3.33333 Z2.79232 F[#31] (point)
G1 X2.68687 Y3.33333 Z2.72937 F[#31] (point)
G1 X2.82828 Y3.33333 Z2.64771 F[#31] (point)
G1 X2.9697 Y3.33333 Z2.54342 F[#31] (point)
G1 X3.11111 Y3.33333 Z2.40966 F[#31] (point)
G1 X3.25253 Y3.33333 Z2.23273 F[#31] (point)
G1 X3.39394 Y3.33333 Z2 F[#31] (point)
G1 X14 Y3.33333 Z2 F[#31] (point)
;G1 X14 Y3.33333 Z22 (endrun)
;G1 X14 Y4.44444 Z22 (beginrun)
G1 X14 Y4.44444 Z2 F[#31] (point)
G1 X0 Y4.44444 Z2 F[#31] (point)
;G1 X0 Y4.44444 Z22 (endrun)
;G1 X0 Y5.55556 Z22 (beginrun)
G1 X0 Y5.55556 Z2 F[#31] (point)
G1 X14 Y5.55556 Z2 F[#31] (point)
;G1 X14 Y5.55556 Z22 (endrun)
;G1 X14 Y6.66667 Z22 (beginrun)
G1 X14 Y6.66667 Z2 F[#31] (point)
G1 X0 Y6.66667 Z2 F[#31] (point)
;G1 X0 Y6.66667 Z22 (endrun)
;G1 X0 Y7.77778 Z22 (beginrun)
G1 X0 Y7.77778 Z2 F[#31] (point)
G1 X14 Y7.77778 Z2 F[#31] (point)
;G1 X14 Y7.77778 Z22 (endrun)
;G1 X14 Y8.88889 Z22 (beginrun)
G1 X14 Y8.88889 Z2 F[#31] (point)
G1 X0 Y8.88889 Z2 F[#31] (point)
;G1 X0 Y8.88889 Z22 (endrun)
;G1 X0 Y10 Z22 (beginrun)
G1 X0 Y10 Z2 F[#31] (point)
G1 X14 Y10 Z2 F[#31] (point)
;G1 X14 Y10 Z22 (endrun)
;G1 X14 Y10 Z22 (endpath)
G0 X14 Y0 Z22 A240 (beginpath)
;G1 X14 Y0 Z22 (beginrun)
G1 X14 Y0 Z0 F[#31] (point)
G1 X0 Y0 Z0 F[#31] (point)
;G1 X0 Y0 Z22 (endrun)
;G1 X0 Y1.11111 Z22 (beginrun)
G1 X0 Y1.11111 Z0 F[#31] (point)
G1 X1.41414 Y1.11111 Z0 F[#31] (point)
G1 X1.55556 Y1.11111 Z0.20303 F[#31] (point)
G1 X1.69697 Y1.11111 Z0.755464 F[#31] (point)
G1 X1.83838 Y1.11111 Z1.16256 F[#31] (point)
G1 X1.9798 Y1.11111 Z1.33408 F[#31] (point)
G1 X2.12121 Y1.11111 Z1.42895 F[#31] (point)
G1 X2.26263 Y1.11111 Z1.48204 F[#31] (point)
G1 X2.40404 Y1.11111 Z1.50714 F[#31] (point)
G1 X2.54545 Y1.11111 Z1.51136 F[#31] (point)
G1 X2.68687 Y1.11111 Z1.49899 F[#31] (point)
G1 X2.82828 Y1.11111 Z1.47281 F[#31] (point)
G1 X2.9697 Y1.11111 Z1.43475 F[#31] (point)
G1 X3.11111 Y1.11111 Z1.38622 F[#31] (point)
G1 X3.25253 Y1.11111 Z1.32826 F[#31] (point)
G1 X3.39394 Y1.11111 Z1.26164 F[#31] (point)
G1 X3.53535 Y1.11111 Z1.18699 F[#31] (point)
G1 X3.67677 Y1.11111 Z1.10476 F[#31] (point)
G1 X3.81818 Y1.11111 Z1.01531 F[#31] (point)
G1 X3.9596 Y1.11111 Z0.918919 F[#31] (point)
G1 X4.10101 Y1.11111 Z0.815772 F[#31] (point)
G1 X4.24242 Y1.11111 Z0.705999 F[#31] (point)
G1 X4.38384 Y1.11111 Z0.589667 F[#31] (point)
G1 X4.52525 Y1.11111 Z0.466788 F[#31] (point)
G1 X4.66667 Y1.11111 Z0.337314 F[#31] (point)
G1 X4.80808 Y1.11111 Z0.201143 F[#31] (point)
G1 X4.94949 Y1.11111 Z0.0581058 F[#31] (point)
G1 X5.09091 Y1.11111 Z0 F[#31] (point)
G1 X14 Y1.11111 Z0 F[#31] (point)
;G1 X14 Y1.11111 Z22 (endrun)
;G1 X14 Y2.22222 Z22 (beginrun)
G1 X14 Y2.22222 Z0 F[#31] (point)
G1 X4.94949 Y2.22222 Z0 F[#31] (point)
G1 X4.80808 Y2.22222 Z0.188329 F[#31] (point)
G1 X4.66667 Y2.22222 Z0.429513 F[#31] (point)
G1 X4.52525 Y2.22222 Z0.653762 F[#31] (point)
G1 X4.38384 Y2.22222 Z0.863975 F[#31] (point)
G1 X4.24242 Y2.22222 Z1.06215 F[#31] (point)
G1 X4.10101 Y2.22222 Z1.24974 F[#31] (point)
G1 X3.9596 Y2.22222 Z1.42779 F[#31] (point)
G1 X3.81818 Y2.22222 Z1.59713 F[#31] (point)
G1 X3.67677 Y2.22222 Z1.75838 F[#31] (point)
G1 X3.53535 Y2.22222 Z1.91201 F[#31] (point)
G1 X3.39394 Y2.22222 Z2.0584 F[#31] (point)
G1 X3.25253 Y2.22222 Z2.19782 F[#31] (point)
G1 X3.11111 Y2.22222 Z2.33046 F[#31] (point)
G1 X2.9697 Y2.22222 Z2.45647 F[#31] (point)
G1 X2.82828 Y2.22222 Z2.56808 F[#31] (point)
G1 X2.68687 Y2.22222 Z2.65483 F[#31] (point)
G1 X2.54545 Y2.22222 Z2.72128 F[#31] (point)
G1 X2.40404 Y2.22222 Z2.77031 F[#31] (point)
G1 X2.26263 Y2.22222 Z2.80373 F[#31] (point)
G1 X2.12121 Y2.22222 Z2.82262 F[#31] (point)
G1 X1.9798 Y2.22222 Z2.82769 F[#31] (point)
G1 X0 Y2.22222 Z2.82769 F[#31] (point)
;G1 X0 Y2.22222 Z22 (endrun)
;G1 X0 Y3.33333 Z22 (beginrun)
G1 X0 Y3.33333 Z2.89376 F[#31] (point)
G1 X1.9798 Y3.33333 Z2.89376 F[#31] (point)
G1 X2.12121 Y3.33333 Z2.88891 F[#31] (point)
G1 X2.26263 Y3.33333 Z2.87086 F[#31] (point)
G1 X2.40404 Y3.33333 Z2.83897 F[#31] (point)
G1 X2.54545 Y3.33333 Z2.79232 F[#31] (point)
G1 X2.68687 Y3.33333 Z2.72937 F[#31] (point)
G1 X2.82828 Y3.33333 Z2.64771 F[#31] (point)
G1 X2.9697 Y3.33333 Z2.54342 F[#31] (point)
G1 X3.11111 Y3.33333 Z2.40966 F[#31] (point)
G1 X3.25253 Y3.33333 Z2.23273 F[#31] (point)
G1 X3.39394 Y3.33333 Z1.99082 F[#31] (point)
G1 X3.53535 Y3.33333 Z1.71568 F[#31] (point)
G1 X3.67677 Y3.33333 Z1.40589 F[#31] (point)
G1 X3.81818 Y3.33333 Z1.03914 F[#31] (point)
G1 X3.9596 Y3.33333 Z0.53608 F[#31] (point)
G1 X4.10101 Y3.33333 Z0 F[#31] (point)
G1 X14 Y3.33333 Z0 F[#31] (point)
;G1 X14 Y3.33333 Z22 (endrun)
;G1 X14 Y4.44444 Z22 (beginrun)
G1 X14 Y4.44444 Z0 F[#31] (point)
G1 X2.40404 Y4.44444 Z0 F[#31] (point)
G1 X2.26263 Y4.44444 Z1.35091 F[#31] (point)
G1 X2.12121 Y4.44444 Z1.55014 F[#31] (point)
G1 X1.9798 Y4.44444 Z1.60977 F[#31] (point)
G1 X1.83838 Y4.44444 Z1.61949 F[#31] (point)
G1 X0 Y4.44444 Z1.61949 F[#31] (point)
;G1 X0 Y4.44444 Z22 (endrun)
;G1 X0 Y5.55556 Z22 (beginrun)
G1 X0 Y5.55556 Z0 F[#31] (point)
G1 X14 Y5.55556 Z0 F[#31] (point)
;G1 X14 Y5.55556 Z22 (endrun)
;G1 X14 Y6.66667 Z22 (beginrun)
G1 X14 Y6.66667 Z0 F[#31] (point)
G1 X0 Y6.66667 Z0 F[#31] (point)
;G1 X0 Y6.66667 Z22 (endrun)
;G1 X0 Y7.77778 Z22 (beginrun)
G1 X0 Y7.77778 Z0 F[#31] (point)
G1 X14 Y7.77778 Z0 F[#31] (point)
;G1 X14 Y7.77778 Z22 (endrun)
;G1 X14 Y8.88889 Z22 (beginrun)
G1 X14 Y8.88889 Z0 F[#31] (point)
G1 X0 Y8.88889 Z0 F[#31] (point)
;G1 X0 Y8.88889 Z22 (endrun)
;G1 X0 Y10 Z22 (beginrun)
G1 X0 Y10 Z0 F[#31] (point)
G1 X14 Y10 Z0 F[#31] (point)
;G1 X14 Y10 Z22 (endrun)
;G1 X14 Y10 Z22 (endpath)
G0 X14 Y0 Z22 A260 (beginpath)
;G1 X14 Y0 Z22 (beginrun)
G1 X14 Y0 Z4 F[#31] (point)
G1 X0 Y0 Z4 F[#31] (point)
;G1 X0 Y0 Z22 (endrun)
;G1 X0 Y1.11111 Z22 (beginrun)
G1 X0 Y1.11111 Z4 F[#31] (point)
G1 X14 Y1.11111 Z4 F[#31] (point)
;G1 X14 Y1.11111 Z22 (endrun)
;G1 X14 Y2.22222 Z22 (beginrun)
G1 X14 Y2.22222 Z4 F[#31] (point)
G1 X0 Y2.22222 Z4 F[#31] (point)
;G1 X0 Y2.22222 Z22 (endrun)
;G1 X0 Y3.33333 Z22 (beginrun)
G1 X0 Y3.33333 Z4 F[#31] (point)
G1 X14 Y3.33333 Z4 F[#31] (point)
;G1 X14 Y3.33333 Z22 (endrun)
;G1 X14 Y4.44444 Z22 (beginrun)
G1 X14 Y4.44444 Z4 F[#31] (point)
G1 X0 Y4.44444 Z4 F[#31] (point)
;G1 X0 Y4.44444 Z22 (endrun)
;G1 X0 Y5.55556 Z22 (beginrun)
G1 X0 Y5.55556 Z4 F[#31] (point)
G1 X14 Y5.55556 Z4 F[#31] (point)
;G1 X14 Y5.55556 Z22 (endrun)
;G1 X14 Y6.66667 Z22 (beginrun)
G1 X14 Y6.66667 Z4 F[#31] (point)
G1 X0 Y6.66667 Z4 F[#31] (point)
;G1 X0 Y6.66667 Z22 (endrun)
;G1 X0 Y7.77778 Z22 (beginrun)
G1 X0 Y7.77778 Z4 F[#31] (point)
G1 X14 Y7.77778 Z4 F[#31] (point)
;G1 X14 Y7.77778 Z22 (endrun)
;G1 X14 Y8.88889 Z22 (beginrun)
G1 X14 Y8.88889 Z4 F[#31] (point)
G1 X0 Y8.88889 Z4 F[#31] (point)
;G1 X0 Y8.88889 Z22 (endrun)
;G1 X0 Y10 Z22 (beginrun)
G1 X0 Y10 Z4 F[#31] (point)
G1 X14 Y10 Z4 F[#31] (point)
;G1 X14 Y10 Z22 (endrun)
;G1 X14 Y10 Z22 (endpath)
G0 X14 Y0 Z22 A260 (beginpath)
;G1 X14 Y0 Z22 (beginrun)
G1 X14 Y0 Z2 F[#31] (point)
G1 X0 Y0 Z2 F[#31] (point)
;G1 X0 Y0 Z22 (endrun)
;G1 X0 Y1.11111 Z22 (beginrun)
G1 X0 Y1.11111 Z3.66038 F[#31] (point)
G1 X1.9798 Y1.11111 Z3.66038 F[#31] (point)
G1 X2.12121 Y1.11111 Z3.65541 F[#31] (point)
G1 X2.26263 Y1.11111 Z3.63693 F[#31] (point)
G1 X2.40404 Y1.11111 Z3.60425 F[#31] (point)
G1 X2.54545 Y1.11111 Z3.55637 F[#31] (point)
G1 X2.68687 Y1.11111 Z3.49163 F[#31] (point)
G1 X2.82828 Y1.11111 Z3.40737 F[#31] (point)
G1 X2.9697 Y1.11111 Z3.29919 F[#31] (point)
G1 X3.11111 Y1.11111 Z3.15922 F[#31] (point)
G1 X3.25253 Y1.11111 Z2.97981 F[#31] (point)
G1 X3.39394 Y1.11111 Z2.79274 F[#31] (point)
G1 X3.53535 Y1.11111 Z2.60424 F[#31] (point)
G1 X3.67677 Y1.11111 Z2.41432 F[#31] (point)
G1 X3.81818 Y1.11111 Z2.223 F[#31] (point)
G1 X3.9596 Y1.11111 Z2.03027 F[#31] (point)
G1 X4.10101 Y1.11111 Z2 F[#31] (point)
G1 X14 Y1.11111 Z2 F[#31] (point)
;G1 X14 Y1.11111 Z22 (endrun)
;G1 X14 Y2.22222 Z22 (beginrun)
G1 X14 Y2.22222 Z2 F[#31] (point)
G1 X3.9596 Y2.22222 Z2 F[#31] (point)
G1 X3.81818 Y2.22222 Z2.03235 F[#31] (point)
G1 X3.67677 Y2.22222 Z2.27565 F[#31] (point)
G1 X3.53535 Y2.22222 Z2.51624 F[#31] (point)
G1 X3.39394 Y2.22222 Z2.75428 F[#31] (point)
G1 X3.25253 Y2.22222 Z2.98844 F[#31] (point)
G1 X3.11111 Y2.22222 Z3.17354 F[#31] (point)
G1 X2.9697 Y2.22222 Z3.31174 F[#31] (point)
G1 X2.82828 Y2.22222 Z3.41883 F[#31] (point)
G1 X2.68687 Y2.22222 Z3.50236 F[#31] (point)
G1 X2.54545 Y2.22222 Z3.5666 F[#31] (point)
G1 X2.40404 Y2.22222 Z3.61414 F[#31] (point)
G1 X2.26263 Y2.22222 Z3.64659 F[#31] (point)
G1 X2.12121 Y2.22222 Z3.66496 F[#31] (point)
G1 X1.9798 Y2.22222 Z3.66989 F[#31] (point)
G1 X0 Y2.22222 Z3.66989 F[#31] (point)
;G1 X0 Y2.22222 Z22 (endrun)
;G1 X0 Y3.33333 Z22 (beginrun)
G1 X0 Y3.33333 Z2.58374 F[#31] (point)
G1 X1.55556 Y3.33333 Z2.58374 F[#31] (point)
G1 X1.69697 Y3.33333 Z2.57689 F[#31] (point)
G1 X1.83838 Y3.33333 Z2.55225 F[#31] (point)
G1 X1.9798 Y3.33333 Z2.50467 F[#31] (point)
G1 X2.12121 Y3.33333 Z2.425 F[#31] (point)
G1 X2.26263 Y3.33333 Z2.29372 F[#31] (point)
G1 X2.40404 Y3.33333 Z2.04673 F[#31] (point)
G1 X2.54545 Y3.33333 Z2 F[#31] (point)
G1 X14 Y3.33333 Z2 F[#31] (point)
;G1 X14 Y3.33333 Z22 (endrun)
;G1 X14 Y4.44444 Z22 (beginrun)
G1 X14 Y4.44444 Z2 F[#31] (point)
G1 X0 Y4.44444 Z2 F[#31] (point)
;G1 X0 Y4.44444 Z22 (endrun)
;G1 X0 Y5.55556 Z22 (beginrun)
G1 X0 Y5.55556 Z2 F[#31] (point)
G1 X14 Y5.55556 Z2 F[#31] (point)
;G1 X14 Y5.55556 Z22 (endrun)
;G1 X14 Y6.66667 Z22 (beginrun)
G1 X14 Y6.66667 Z2 F[#31] (point)
G1 X0 Y6.66667 Z2 F[#31] (point)
;G1 X0 Y6.66667 Z22 (endrun)
;G1 X0 Y7.77778 Z22 (beginrun)
G1 X0 Y7.77778 Z2 F[#31] (point)
G1 X14 Y7.77778 Z2 F[#31] (point)
;G1 X14 Y7.77778 Z22 (endrun)
;G1 X14 Y8.88889 Z22 (beginrun)
G1 X14 Y8.88889 Z2 F[#31] (point)
G1 X0 Y8.88889 Z2 F[#31] (point)
;G1 X0 Y8.88889 Z22 (endrun)
;G1 X0 Y10 Z22 (beginrun)
G1 X0 Y10 Z2 F[#31] (point)
G1 X14 Y10 Z2 F[#31] (point)
;G1 X14 Y10 Z22 (endrun)
;G1 X14 Y10 Z22 (endpath)
G0 X14 Y0 Z22 A260 (beginpath)
;G1 X14 Y0 Z22 (beginrun)
G1 X14 Y0 Z0 F[#31] (point)
G1 X4.80808 Y0 Z0 F[#31] (point)
G1 X4.66667 Y0 Z0.0989298 F[#31] (point)
G1 X4.52525 Y0 Z0.246483 F[#31] (point)
G1 X4.38384 Y0 Z0.391119 F[#31] (point)
G1 X4.24242 Y0 Z0.53262 F[#31] (point)
G1 X4.10101 Y0 Z0.670734 F[#31] (point)
G1 X3.9596 Y0 Z0.805158 F[#31] (point)
G1 X3.81818 Y0 Z0.935532 F[#31] (point)
G1 X3.67677 Y0 Z1.06142 F[#31] (point)
G1 X3.53535 Y0 Z1.18227 F[#31] (point)
G1 X3.39394 Y0 Z1.29742 F[#31] (point)
G1 X3.25253 Y0 Z1.40597 F[#31] (point)
G1 X3.11111 Y0 Z1.50676 F[#31] (point)
G1 X2.9697 Y0 Z1.59817 F[#31] (point)
G1 X2.82828 Y0 Z1.67786 F[#31] (point)
G1 X2.68687 Y0 Z1.74219 F[#31] (point)
G1 X2.54545 Y0 Z1.78492 F[#31] (point)
G1 X2.40404 Y0 Z1.79346 F[#31] (point)
G1 X2.26263 Y0 Z1.73227 F[#31] (point)
G1 X2.12121 Y0 Z1.73227 F[#31] (point)
G1 X2.12121 Y0 Z0 F[#31] (point)
G1 X0 Y0 Z0 F[#31] (point)
;G1 X0 Y0 Z22 (endrun)
;G1 X0 Y1.11111 Z22 (beginrun)
G1 X0 Y1.11111 Z3.66038 F[#31] (point)
G1 X1.9798 Y1.11111 Z3.66038 F[#31] (point)
G1 X2.12121 Y1.11111 Z3.65541 F[#31] (point)
G1 X2.26263 Y1.11111 Z3.63693 F[#31] (point)
G1 X2.40404 Y1.11111 Z3.60425 F[#31] (point)
G1 X2.54545 Y1.11111 Z3.55637 F[#31] (point)
G1 X2.68687 Y1.11111 Z3.49163 F[#31] (point)
G1 X2.82828 Y1.11111 Z3.40737 F[#31] (point)
G1 X2.9697 Y1.11111 Z3.29919 F[#31] (point)
G1 X3.11111 Y1.11111 Z3.15922 F[#31] (point)
G1 X3.25253 Y1.11111 Z2.97981 F[#31] (point)
G1 X3.39394 Y1.11111 Z2.79274 F[#31] (point)
G1 X3.53535 Y1.11111 Z2.60424 F[#31] (point)
G1 X3.67677 Y1.11111 Z2.41432 F[#31] (point)
G1 X3.81818 Y1.11111 Z2.223 F[#31] (point)
G1 X3.9596 Y1.11111 Z2.03027 F[#31] (point)
G1 X4.10101 Y1.11111 Z1.83614 F[#31] (point)
G1 X4.24242 Y1.11111 Z1.64061 F[#31] (point)
G1 X4.38384 Y1.11111 Z1.44369 F[#31] (point)
G1 X4.52525 Y1.11111 Z1.24536 F[#31] (point)
G1 X4.66667 Y1.11111 Z1.04564 F[#31] (point)
G1 X4.80808 Y1.11111 Z0.844505 F[#31] (point)
G1 X4.94949 Y1.11111 Z0.641954 F[#31] (point)
G1 X5.09091 Y1.11111 Z0.437974 F[#31] (point)
G1 X5.23232 Y1.11111 Z0.232553 F[#31] (point)
G1 X5.37374 Y1.11111 Z0.0178628 F[#31] (point)
G1 X5.51515 Y1.11111 Z0 F[#31] (point)
G1 X14 Y1.11111 Z0 F[#31] (point)
;G1 X14 Y1.11111 Z22 (endrun)
;G1 X14 Y2.22222 Z22 (beginrun)
G1 X14 Y2.22222 Z0 F[#31] (point)
G1 X4.94949 Y2.22222 Z0 F[#31] (point)
G1 X4.80808 Y2.22222 Z0.233323 F[#31] (point)
G1 X4.66667 Y2.22222 Z0.502966 F[#31] (point)
G1 X4.52525 Y2.22222 Z0.767664 F[#31] (point)
G1 X4.38384 Y2.22222 Z1.02794 F[#31] (point)
G1 X4.24242 Y2.22222 Z1.28422 F[#31] (point)
G1 X4.10101 Y2.22222 Z1.53687 F[#31] (point)
G1 X3.9596 Y2.22222 Z1.78616 F[#31] (point)
G1 X3.81818 Y2.22222 Z2.03235 F[#31] (point)
G1 X3.67677 Y2.22222 Z2.27565 F[#31] (point)
G1 X3.53535 Y2.22222 Z2.51624 F[#31] (point)
G1 X3.39394 Y2.22222 Z2.75428 F[#31] (point)
G1 X3.25253 Y2.22222 Z2.98844 F[#31] (point)
G1 X3.11111 Y2.22222 Z3.17354 F[#31] (point)
G1 X2.9697 Y2.22222 Z3.31174 F[#31] (point)
G1 X2.82828 Y2.22222 Z3.41883 F[#31] (point)
G1 X2.68687 Y2.22222 Z3.50236 F[#31] (point)
G1 X2.54545 Y2.22222 Z3.5666 F[#31] (point)
G1 X2.40404 Y2.22222 Z3.61414 F[#31] (point)
G1 X2.26263 Y2.22222 Z3.64659 F[#31] (point)
G1 X2.12121 Y2.22222 Z3.66496 F[#31] (point)
G1 X1.9798 Y2.22222 Z3.66989 F[#31] (point)
G1 X0 Y2.22222 Z3.66989 F[#31] (point)
;G1 X0 Y2.22222 Z22 (endrun)
;G1 X0 Y3.33333 Z22 (beginrun)
G1 X0 Y3.33333 Z2.58374 F[#31] (point)
G1 X1.55556 Y3.33333 Z2.58374 F[#31] (point)
G1 X1.69697 Y3.33333 Z2.57689 F[#31] (point)
G1 X1.83838 Y3.33333 Z2.55225 F[#31] (point)
G1 X1.9798 Y3.33333 Z2.50467 F[#31] (point)
G1 X2.12121 Y3.33333 Z2.425 F[#31] (point)
G1 X2.26263 Y3.33333 Z2.29372 F[#31] (point)
G1 X2.40404 Y3.33333 Z2.04673 F[#31] (point)
G1 X2.54545 Y3.33333 Z1.66165 F[#31] (point)
G1 X3.11111 Y3.33333 Z0.12087 F[#31] (point)
G1 X3.25253 Y3.33333 Z0 F[#31] (point)
G1 X14 Y3.33333 Z0 F[#31] (point)
;G1 X14 Y3.33333 Z22 (endrun)
;G1 X14 Y4.44444 Z22 (beginrun)
G1 X14 Y4.44444 Z0 F[#31] (point)
G1 X1.27273 Y4.44444 Z0 F[#31] (point)
G1 X1.13131 Y4.44444 Z0.195644 F[#31] (point)
G1 X0.989899 Y4.44444 Z0.559782 F[#31] (point)
G1 X0.848485 Y4.44444 Z0.755734 F[#31] (point)
G1 X0.707071 Y4.44444 Z0.867458 F[#31] (point)
G1 X0.565657 Y4.44444 Z0.93567 F[#31] (point)
G1 X0.424242 Y4.44444 Z0.975324 F[#31] (point)
G1 X0.282828 Y4.44444 Z0.993933 F[#31] (point)
G1 X0.141414 Y4.44444 Z0.996911 F[#31] (point)
G1 X0 Y4.44444 Z0.996911 F[#31] (point)
;G1 X0 Y4.44444 Z22 (endrun)
;G1 X0 Y5.55556 Z22 (beginrun)
G1 X0 Y5.55556 Z0 F[#31] (point)
G1 X14 Y5.55556 Z0 F[#31] (point)
;G1 X14 Y5.55556 Z22 (endrun)
;G1 X14 Y6.66667 Z22 (beginrun)
G1 X14 Y6.66667 Z0 F[#31] (point)
G1 X0 Y6.66667 Z0 F[#31] (point)
;G1 X0 Y6.66667 Z22 (endrun)
;G1 X0 Y7.77778 Z22 (beginrun)
G1 X0 Y7.77778 Z0 F[#31] (point)
G1 X14 Y7.77778 Z0 F[#31] (point)
;G1 X14 Y7.77778 Z22 (endrun)
;G1 X14 Y8.88889 Z22 (beginrun)
G1 X14 Y8.88889 Z0 F[#31] (point)
G1 X0 Y8.88889 Z0 F[#31] (point)
;G1 X0 Y8.88889 Z22 (endrun)
;G1 X0 Y10 Z22 (beginrun)
G1 X0 Y10 Z0 F[#31] (point)
G1 X14 Y10 Z0 F[#31] (point)
;G1 X14 Y10 Z22 (endrun)
;G1 X14 Y10 Z22 (endpath)
G0 X14 Y0 Z22 A280 (beginpath)
;G1 X14 Y0 Z22 (beginrun)
G1 X14 Y0 Z4 F[#31] (point)
G1 X2.54545 Y0 Z4 F[#31] (point)
G1 X2.40404 Y0 Z4.03292 F[#31] (point)
G1 X2.26263 Y0 Z4.06387 F[#31] (point)
G1 X2.12121 Y0 Z4.08141 F[#31] (point)
G1 X1.9798 Y0 Z4.08612 F[#31] (point)
G1 X0 Y0 Z4.08612 F[#31] (point)
;G1 X0 Y0 Z22 (endrun)
;G1 X0 Y1.11111 Z22 (beginrun)
G1 X0 Y1.11111 Z4 F[#31] (point)
G1 X14 Y1.11111 Z4 F[#31] (point)
;G1 X14 Y1.11111 Z22 (endrun)
;G1 X14 Y2.22222 Z22 (beginrun)
G1 X14 Y2.22222 Z4 F[#31] (point)
G1 X0 Y2.22222 Z4 F[#31] (point)
;G1 X0 Y2.22222 Z22 (endrun)
;G1 X0 Y3.33333 Z22 (beginrun)
G1 X0 Y3.33333 Z4 F[#31] (point)
G1 X14 Y3.33333 Z4 F[#31] (point)
;G1 X14 Y3.33333 Z22 (endrun)
;G1 X14 Y4.44444 Z22 (beginrun)
G1 X14 Y4.44444 Z4 F[#31] (point)
G1 X0 Y4.44444 Z4 F[#31] (point)
;G1 X0 Y4.44444 Z22 (endrun)
;G1 X0 Y5.55556 Z22 (beginrun)
G1 X0 Y5.55556 Z4 F[#31] (point)
G1 X14 Y5.55556 Z4 F[#31] (point)
;G1 X14 Y5.55556 Z22 (endrun)
;G1 X14 Y6.66667 Z22 (beginrun)
G1 X14 Y6.66667 Z4 F[#31] (point)
G1 X0 Y6.66667 Z4 F[#31] (point)
;G1 X0 Y6.66667 Z22 (endrun)
;G1 X0 Y7.77778 Z22 (beginrun)
G1 X0 Y7.77778 Z4 F[#31] (point)
G1 X14 Y7.77778 Z4 F[#31] (point)
;G1 X14 Y7.77778 Z22 (endrun)
;G1 X14 Y8.88889 Z22 (beginrun)
G1 X14 Y8.88889 Z4 F[#31] (point)
G1 X0 Y8.88889 Z4 F[#31] (point)
;G1 X0 Y8.88889 Z22 (endrun)
;G1 X0 Y10 Z22 (beginrun)
G1 X0 Y10 Z4 F[#31] (point)
G1 X14 Y10 Z4 F[#31] (point)
;G1 X14 Y10 Z22 (endrun)
;G1 X14 Y10 Z22 (endpath)
G0 X14 Y0 Z22 A280 (beginpath)
;G1 X14 Y0 Z22 (beginrun)
G1 X14 Y0 Z2 F[#31] (point)
G1 X4.24242 Y0 Z2 F[#31] (point)
G1 X4.10101 Y0 Z2.10492 F[#31] (point)
G1 X3.9596 Y0 Z2.33639 F[#31] (point)
G1 X3.81818 Y0 Z2.56575 F[#31] (point)
G1 X3.67677 Y0 Z2.7931 F[#31] (point)
G1 X3.53535 Y0 Z3.01851 F[#31] (point)
G1 X3.39394 Y0 Z3.24205 F[#31] (point)
G1 X3.25253 Y0 Z3.45657 F[#31] (point)
G1 X3.11111 Y0 Z3.62144 F[#31] (point)
G1 X2.9697 Y0 Z3.74833 F[#31] (point)
G1 X2.82828 Y0 Z3.84821 F[#31] (point)
G1 X2.68687 Y0 Z3.92686 F[#31] (point)
G1 X2.54545 Y0 Z3.98771 F[#31] (point)
G1 X2.40404 Y0 Z4.03292 F[#31] (point)
G1 X2.26263 Y0 Z4.06387 F[#31] (point)
G1 X2.12121 Y0 Z4.08141 F[#31] (point)
G1 X1.9798 Y0 Z4.08612 F[#31] (point)
G1 X0 Y0 Z4.08612 F[#31] (point)
;G1 X0 Y0 Z22 (endrun)
;G1 X0 Y1.11111 Z22 (beginrun)
G1 X0 Y1.11111 Z3.88416 F[#31] (point)
G1 X1.9798 Y1.11111 Z3.88416 F[#31] (point)
G1 X2.12121 Y1.11111 Z3.87874 F[#31] (point)
G1 X2.26263 Y1.11111 Z3.85854 F[#31] (point)
G1 X2.40404 Y1.11111 Z3.8227 F[#31] (point)
G1 X2.54545 Y1.11111 Z3.76987 F[#31] (point)
G1 X2.68687 Y1.11111 Z3.69777 F[#31] (point)
G1 X2.82828 Y1.11111 Z3.60252 F[#31] (point)
G1 X2.9697 Y1.11111 Z3.47721 F[#31] (point)
G1 X3.11111 Y1.11111 Z3.31265 F[#31] (point)
G1 X3.25253 Y1.11111 Z3.1375 F[#31] (point)
G1 X3.39394 Y1.11111 Z2.96074 F[#31] (point)
G1 X3.53535 Y1.11111 Z2.7824 F[#31] (point)
G1 X3.67677 Y1.11111 Z2.60252 F[#31] (point)
G1 X3.81818 Y1.11111 Z2.42111 F[#31] (point)
G1 X3.9596 Y1.11111 Z2.23821 F[#31] (point)
G1 X4.10101 Y1.11111 Z2.05384 F[#31] (point)
G1 X4.24242 Y1.11111 Z2 F[#31] (point)
G1 X14 Y1.11111 Z2 F[#31] (point)
;G1 X14 Y1.11111 Z22 (endrun)
;G1 X14 Y2.22222 Z22 (beginrun)
G1 X14 Y2.22222 Z2 F[#31] (point)
G1 X2.82828 Y2.22222 Z2 F[#31] (point)
G1 X2.68687 Y2.22222 Z2.13181 F[#31] (point)
G1 X2.12121 Y2.22222 Z2.72978 F[#31] (point)
G1 X1.9798 Y2.22222 Z2.85487 F[#31] (point)
G1 X1.83838 Y2.22222 Z2.94448 F[#31] (point)
G1 X1.69697 Y2.22222 Z3.00948 F[#31] (point)
G1 X1.55556 Y2.22222 Z3.05564 F[#31] (point)
G1 X1.41414 Y2.22222 Z3.08646 F[#31] (point)
G1 X1.27273 Y2.22222 Z3.10422 F[#31] (point)
G1 X1.13131 Y2.22222 Z3.11051 F[#31] (point)
G1 X0.989899 Y2.22222 Z3.11055 F[#31] (point)
G1 X0 Y2.22222 Z3.11055 F[#31] (point)
;G1 X0 Y2.22222 Z22 (endrun)
;G1 X0 Y3.33333 Z22 (beginrun)
G1 X0 Y3.33333 Z2.33254 F[#31] (point)
G1 X0.141414 Y3.33333 Z2.33254 F[#31] (point)
G1 X0.282828 Y3.33333 Z2.32851 F[#31] (point)
G1 X0.424242 Y3.33333 Z2.31336 F[#31] (point)
G1 X0.565657 Y3.33333 Z2.28555 F[#31] (point)
G1 X0.707071 Y3.33333 Z2.24297 F[#31] (point)
G1 X0.848485 Y3.33333 Z2.18246 F[#31] (point)
G1 X0.989899 Y3.33333 Z2.09888 F[#31] (point)
G1 X1.13131 Y3.33333 Z2 F[#31] (point)
G1 X14 Y3.33333 Z2 F[#31] (point)
;G1 X14 Y3.33333 Z22 (endrun)
;G1 X14 Y4.44444 Z22 (beginrun)
G1 X14 Y4.44444 Z2 F[#31] (point)
G1 X0 Y4.44444 Z2 F[#31] (point)
;G1 X0 Y4.44444 Z22 (endrun)
;G1 X0 Y5.55556 Z22 (beginrun)
G1 X0 Y5.55556 Z2 F[#31] (point)
G1 X14 Y5.55556 Z2 F[#31] (point)
;G1 X14 Y5.55556 Z22 (endrun)
;G1 X14 Y6.66667 Z22 (beginrun)
G1 X14 Y6.66667 Z2 F[#31] (point)
G1 X0 Y6.66667 Z2 F[#31] (point)
;G1 X0 Y6.66667 Z22 (endrun)
;G1 X0 Y7.77778 Z22 (beginrun)
G1 X0 Y7.77778 Z2 F[#31] (point)
G1 X14 Y7.77778 Z2 F[#31] (point)
;G1 X14 Y7.77778 Z22 (endrun)
;G1 X14 Y8.88889 Z22 (beginrun)
G1 X14 Y8.88889 Z2 F[#31] (point)
G1 X0 Y8.88889 Z2 F[#31] (point)
;G1 X0 Y8.88889 Z22 (endrun)
;G1 X0 Y10 Z22 (beginrun)
G1 X0 Y10 Z2 F[#31] (point)
G1 X14 Y10 Z2 F[#31] (point)
;G1 X14 Y10 Z22 (endrun)
;G1 X14 Y10 Z22 (endpath)
G0 X14 Y0 Z22 A280 (beginpath)
;G1 X14 Y0 Z22 (beginrun)
G1 X14 Y0 Z0 F[#31] (point)
G1 X5.37374 Y0 Z0 F[#31] (point)
G1 X5.23232 Y0 Z0.157091 F[#31] (point)
G1 X5.09091 Y0 Z0.415864 F[#31] (point)
G1 X4.94949 Y0 Z0.665615 F[#31] (point)
G1 X4.80808 Y0 Z0.912231 F[#31] (point)
G1 X4.66667 Y0 Z1.15593 F[#31] (point)
G1 X4.52525 Y0 Z1.3969 F[#31] (point)
G1 X4.38384 Y0 Z1.63529 F[#31] (point)
G1 X4.24242 Y0 Z1.87126 F[#31] (point)
G1 X4.10101 Y0 Z2.10492 F[#31] (point)
G1 X3.9596 Y0 Z2.33639 F[#31] (point)
G1 X3.81818 Y0 Z2.56575 F[#31] (point)
G1 X3.67677 Y0 Z2.7931 F[#31] (point)
G1 X3.53535 Y0 Z3.01851 F[#31] (point)
G1 X3.39394 Y0 Z3.24205 F[#31] (point)
G1 X3.25253 Y0 Z3.45657 F[#31] (point)
G1 X3.11111 Y0 Z3.62144 F[#31] (point)
G1 X2.9697 Y0 Z3.74833 F[#31] (point)
G1 X2.82828 Y0 Z3.84821 F[#31] (point)
G1 X2.68687 Y0 Z3.92686 F[#31] (point)
G1 X2.54545 Y0 Z3.98771 F[#31] (point)
G1 X2.40404 Y0 Z4.03292 F[#31] (point)
G1 X2.26263 Y0 Z4.06387 F[#31] (point)
G1 X2.12121 Y0 Z4.08141 F[#31] (point)
G1 X1.9798 Y0 Z4.08612 F[#31] (point)
G1 X0 Y0 Z4.08612 F[#31] (point)
;G1 X0 Y0 Z22 (endrun)
;G1 X0 Y1.11111 Z22 (beginrun)
G1 X0 Y1.11111 Z3.88416 F[#31] (point)
G1 X1.9798 Y1.11111 Z3.88416 F[#31] (point)
G1 X2.12121 Y1.11111 Z3.87874 F[#31] (point)
G1 X2.26263 Y1.11111 Z3.85854 F[#31] (point)
G1 X2.40404 Y1.11111 Z3.8227 F[#31] (point)
G1 X2.54545 Y1.11111 Z3.76987 F[#31] (point)
G1 X2.68687 Y1.11111 Z3.69777 F[#31] (point)
G1 X2.82828 Y1.11111 Z3.60252 F[#31] (point)
G1 X2.9697 Y1.11111 Z3.47721 F[#31] (point)
G1 X3.11111 Y1.11111 Z3.31265 F[#31] (point)
G1 X3.25253 Y1.11111 Z3.1375 F[#31] (point)
G1 X3.39394 Y1.11111 Z2.96074 F[#31] (point)
G1 X3.53535 Y1.11111 Z2.7824 F[#31] (point)
G1 X3.67677 Y1.11111 Z2.60252 F[#31] (point)
G1 X3.81818 Y1.11111 Z2.42111 F[#31] (point)
